!!!COM: des Prez, Josquin
!!!CDT: ~1450-1521/08/27
!!!OTL@@LAT: Factum est autem
!!!OTL2@@LAT: Qui fuit Heli
!!!OTL3@@LAT: Qui fuit Obed
!!!AGN: Motet
!!!SCT: NJE 19.3
!!!SCA: New Josquin Edition 19.3
!!!voices: 4
**kern	**text	**kern	**text	**kern	**text	**kern	**text
*staff4	*	*staff3	*	*staff2	*	*staff1	*
*Ivox	*	*Ivox	*	*Ivox	*	*Ivox	*
*I"Bassus	*	*I"Tenor	*	*I"Altus	*	*I"Superius	*
*I'B	*	*I'T	*	*I'A	*	*I'S	*
*clefF4	*	*clefGv2	*	*clefGv2	*	*clefG2	*
*k[]	*	*k[]	*	*k[]	*	*k[]	*
*>A	*	*>A	*	*>A	*	*>A	*
*M2/1	*	*M2/1	*	*M2/1	*	*M2/1	*
*met(C|)	*	*met(C|)	*	*met(C|)	*	*met(C|)	*
=1-	=1-	=1-	=1-	=1-	=1-	=1-	=1-
0r	.	0G	Fac-	0r	.	0r	.
=2	=2	=2	=2	=2	=2	=2	=2
0r	.	1G	-tum	0r	.	0g	Fac-
.	.	1G	est	.	.	.	.
=3	=3	=3	=3	=3	=3	=3	=3
0C	Fac-	1.G	au-	0r	.	1g	-tum
.	.	.	.	.	.	1g	est
.	.	2E/	.	.	.	.	.
=4	=4	=4	=4	=4	=4	=4	=4
1C	-tum	0E	-tem	0c	Fac-	1.g	au-
1C	est	.	.	.	.	.	.
.	.	.	.	.	.	2e/	.
=5	=5	=5	=5	=5	=5	=5	=5
1.C	au-	1r	.	1c	-tum	0e	-tem
.	.	1E	cum	1c	est	.	.
2AA/	.	.	.	.	.	.	.
=6	=6	=6	=6	=6	=6	=6	=6
0AA	-tem	1E	bap-	1.c	au-	1r	.
.	.	2E/	-ti-	.	.	1e	cum
.	.	2E/	-za-	2A/	.	.	.
=7	=7	=7	=7	=7	=7	=7	=7
1AA	cum	1E	-re-	1A	-tem	1e	bap-
1AA	bap-	[1E	-tur	1A	cum	2e/	-ti-
.	.	.	.	.	.	2e/	-za-
=8	=8	=8	=8	=8	=8	=8	=8
2AA/	-ti-	1E]	.	1A	bap-	1e	-re-
2AA/	-za-	.	.	.	.	.	.
1AA	-re-	1r	.	2A/	-ti-	[1e	-tur
.	.	.	.	2A/	-za-	.	.
=9	=9	=9	=9	=9	=9	=9	=9
0AA	-tur	1E	om-	1A	-re-	1e]	.
.	.	1E	-nis	1A	-tur	1r	.
=10	=10	=10	=10	=10	=10	=10	=10
1r	.	0G	po-	1B	om-	0r	.
1GG	om-	.	.	1B	-nis	.	.
=11	=11	=11	=11	=11	=11	=11	=11
1AA	-nis	1F	-pu-	1.c	po-	0r	.
[1C	po-	1E	-lus	.	.	.	.
.	.	.	.	2B\	.	.	.
=12	=12	=12	=12	=12	=12	=12	=12
1C]	.	0r	.	1A	.	1r	.
1BB	-pu-	.	.	1G	-pu-	1d	om-
=13	=13	=13	=13	=13	=13	=13	=13
1AA	-lus	0r	.	1c	-lus	1e	-nis
1GG	et	.	.	1B	.	[1g	po-
=14	=14	=14	=14	=14	=14	=14	=14
0C	Ie-	0r	.	0G	et	1g]	.
.	.	.	.	.	.	1e	-pu-
=15	=15	=15	=15	=15	=15	=15	=15
[0C	-su	0E	et	1c	Ie-	1e	-lus
.	.	.	.	1c	-su,	1r	.
=16	=16	=16	=16	=16	=16	=16	=16
0C_	.	1E	Ie-	2r	.	0e	et
.	.	.	.	2.C/	Ie-	.	.
.	.	[1G	-su	.	.	.	.
.	.	.	.	4D/	.	.	.
.	.	.	.	4E/	.	.	.
.	.	.	.	4F/	.	.	.
=17	=17	=17	=17	=17	=17	=17	=17
0C]	.	1G]	.	2G/	.	1e	Ie-
.	.	.	.	2C/	-su	.	.
.	.	1E	bap-	1c	bap-	[1g	-su
=18	=18	=18	=18	=18	=18	=18	=18
0r	.	0G	-ti-	0B	-ti-	2g/]	.
.	.	.	.	.	.	4f/	.
.	.	.	.	.	.	4e/	.
.	.	.	.	.	.	1d	.
=19	=19	=19	=19	=19	=19	=19	=19
1r	.	0A	-za-	1A	-za-	1.c	bap-
1AA	bap-	.	.	[1c	.	.	.
.	.	.	.	.	.	2d/	-ti-
=20	=20	=20	=20	=20	=20	=20	=20
0C	-ti-	0E	-to	2c\]	.	2.e/	-za-
.	.	.	.	4B\	.	.	.
.	.	.	.	4A/	.	4f/	.
.	.	.	.	2.G/	.	[1e	.
.	.	.	.	4A/	.	.	.
=21	=21	=21	=21	=21	=21	=21	=21
0D	-za-	0F	et	1B-	.	2e/]	.
.	.	.	.	.	.	4d/	.
.	.	.	.	.	.	4c/	.
.	.	.	.	1A	.	1d	.
=22	=22	=22	=22	=22	=22	=22	=22
0AA	-to	0E	o-	0A	-to	0e	-to
=23	=23	=23	=23	=23	=23	=23	=23
0BB-	et	0D	-ran-	1r	.	1r	.
.	.	.	.	[1d	et	1g	et
=24	=24	=24	=24	=24	=24	=24	=24
0AA	o-	1.E	-te,	2d\]	.	0a	o-
.	.	.	.	4c\	.	.	.
.	.	.	.	4B\	.	.	.
.	.	.	.	2c\	.	.	.
.	.	2F/	.	2A/	o-	.	.
=25	=25	=25	=25	=25	=25	=25	=25
0GG	-ran-	0G	.	0d	-ran-	0b	-ran-
=26	=26	=26	=26	=26	=26	=26	=26
1.AA	-te,	0r	.	1.c	-te,	1.a	-te,
2BB/	.	.	.	4B\	.	4g/	.
.	.	.	.	4A/	.	4f/	.
=27	=27	=27	=27	=27	=27	=27	=27
0C	.	0G	a-	2G/	.	0e	.
.	.	.	.	2C/	.	.	.
.	.	.	.	[1c	a-	.	.
=28	=28	=28	=28	=28	=28	=28	=28
1C	a-	1G	-per-	1c]	.	1e	a-
1C	-per-	1G	-tum	[1c	-per-	1e	-per-
=29	=29	=29	=29	=29	=29	=29	=29
1C	-tum	1G	est	1c]	.	1e	-tum
1C	est	[1G	ce-	1c	-tum	1e	est
=30	=30	=30	=30	=30	=30	=30	=30
1.C	ce-	2G/]	.	1c	est	1.g	ce-
.	.	2E/	.	.	.	.	.
.	.	1E	-lum,	[1c	ce-	.	.
2AA/	.	.	.	.	.	2c/	.
=31	=31	=31	=31	=31	=31	=31	=31
1AA	-lum,	2r	.	2c\]	.	1c	-lum,
.	.	2E/	et	2A/	.	.	.
1AA	et	1E	de-	1A	-lum,	[1cc	et
=32	=32	=32	=32	=32	=32	=32	=32
1AA	de-	1E	-scen-	1A	et	2cc\]	.
.	.	.	.	.	.	2b\	de-
1AA	-scen-	1E	-dit	[1c	.	1a	-scen-
=33	=33	=33	=33	=33	=33	=33	=33
1C	-dit	0E	spi-	2c\]	.	1g	-dit
.	.	.	.	2B\	de-	.	.
1C	spi-	.	.	1A	-scen-	1a	spi-
=34	=34	=34	=34	=34	=34	=34	=34
1BB	-ri-	1D	-ri-	1G	-dit	1b	-ri-
1AA	-tus	1E	-tus	1A	spi-	1e	-tus
=35	=35	=35	=35	=35	=35	=35	=35
0GG	sanc-	0G	sanc-	1B	-ri-	1r	.
.	.	.	.	1B	-tus	1b	sanc-
=36	=36	=36	=36	=36	=36	=36	=36
0AA	-tus	0E	-tus	1.A	sanc-	1cc	.
.	.	.	.	.	.	2a/	-tus
.	.	.	.	4G/	-tus	[2cc\	cor-
.	.	.	.	4F/	.	.	.
=37	=37	=37	=37	=37	=37	=37	=37
0C	cor-	1r	.	1E	cor-	2cc\]	.
.	.	.	.	.	.	4b\	-po-
.	.	.	.	.	.	4a/	.
.	.	1G	cor-	1E	-po-	[1g	-ra-
=38	=38	=38	=38	=38	=38	=38	=38
1C	-po-	1G	-po-	1c	-ra-	2g/]	.
.	.	.	.	.	.	2f/	.
1C	-ra-	1G	-ra-	1c	-li	1e	.
=39	=39	=39	=39	=39	=39	=39	=39
1D	-li	1F	-li	1B	spe-	1d	-li
[1C	spe-	[1G	spe-	1c	.	[1e	spe-
=40	=40	=40	=40	=40	=40	=40	=40
1C]	.	1G]	.	1c	-ci-	1e]	.
1D	-ci-	1F	-ci-	1A	-e	1d	-ci-
=41	=41	=41	=41	=41	=41	=41	=41
0AA	-e	0E	-e	2r	.	0c	-e
.	.	.	.	2A/	sic-	.	.
.	.	.	.	1A	-ut	.	.
=42	=42	=42	=42	=42	=42	=42	=42
1AA	sic-	0r	.	1A	co-	1r	.
1AA	-ut	.	.	1c	-lum-	1e	sic-
=43	=43	=43	=43	=43	=43	=43	=43
1AA	co-	1E	sic-	1A	-ba	1e	-ut
1C	-lum-	1E	-ut	1G	in	[1e	co-
=44	=44	=44	=44	=44	=44	=44	=44
1AA	-ba	1E	co-	2A/	ip-	2e/]	.
.	.	.	.	1c	.	4d/	.
.	.	.	.	.	.	4c/	.
1GG	in	1G	-lum-	.	.	1d	-lum-
.	.	.	.	2B\	.	.	.
=45	=45	=45	=45	=45	=45	=45	=45
1AA	ip-	1E	-ba	1c	-sum,	1c	-ba
1BB	.	1D	in	1r	.	1d	.
=46	=46	=46	=46	=46	=46	=46	=46
[0C	.	1.E	ip-	0c	in	1.g	in
.	.	2F/	.	.	.	2f/	.
=47	=47	=47	=47	=47	=47	=47	=47
0C]	.	2G/	.	1c	ip-	2.e/	.
.	.	2C/	.	.	.	.	.
.	.	.	.	.	.	4d/	.
.	.	[1G	.	[1c	-sum,	1e	.
=48	=48	=48	=48	=48	=48	=48	=48
0D	.	2G/]	.	2c\]	.	1f	ip-
.	.	4F/	.	4B\	.	.	.
.	.	4E/	.	4A/	.	.	.
.	.	1F	.	1B	.	1d	.
=49	=49	=49	=49	=49	=49	=49	=49
0C	-sum,	1G	-sum,	1c	.	0e	-sum,
.	.	2r	.	1r	.	.	.
.	.	2G/	et	.	.	.	.
=50	=50	=50	=50	=50	=50	=50	=50
0r	.	2A/	vox	1c	et	0r	.
.	.	1c	.	.	.	.	.
.	.	.	.	1d	.	.	.
.	.	2B\	de	.	.	.	.
=51	=51	=51	=51	=51	=51	=51	=51
0r	.	2c\	ce-	1c	vox	1g	et
.	.	2C/	-lo	.	.	.	.
.	.	1F	fac-	1A	de	1a	.
=52	=52	=52	=52	=52	=52	=52	=52
0r	.	1E	-ta	2B\	ce-	1g	vox
.	.	.	.	2.c\	.	.	.
.	.	1C	est:	.	.	1e	.
.	.	.	.	4B\	.	.	.
.	.	.	.	4A/	.	.	.
.	.	.	.	4G/	.	.	.
=53	=53	=53	=53	=53	=53	=53	=53
0r	.	0r	.	2.A/	-lo	1f	de
.	.	.	.	8G/L	.	.	.
.	.	.	.	8F/J	.	.	.
.	.	.	.	1E	.	1g	ce-
=54	=54	=54	=54	=54	=54	=54	=54
0r	.	0r	.	0c	fac-	1g	-lo
.	.	.	.	.	.	2e/	fac-
.	.	.	.	.	.	[2a/	.
=55	=55	=55	=55	=55	=55	=55	=55
0r	.	0r	.	1c	-ta	4a/]	.
.	.	.	.	.	.	4g/	.
.	.	.	.	.	.	2.g/	-ta
.	.	.	.	1B	.	.	.
.	.	.	.	.	.	4f/	.
.	.	.	.	.	.	4e/	.
.	.	.	.	.	.	4d/	.
=56	=56	=56	=56	=56	=56	=56	=56
1r	.	0r	.	1A	est:	0c	est:
[1AA	Tu	.	.	2r	.	.	.
.	.	.	.	2A/	Tu	.	.
=57	=57	=57	=57	=57	=57	=57	=57
1AA]	.	0E	Tu	1A	es	1r	.
1AA	es	.	.	[1c	fi-	[1e	Tu
=58	=58	=58	=58	=58	=58	=58	=58
1.C	fi-	1E	es	2c\]	.	1e]	.
.	.	.	.	2c\	-li-	.	.
.	.	[1G	fi-	1c	-us,	1e	es
2C/	-li-	.	.	.	.	.	.
=59	=59	=59	=59	=59	=59	=59	=59
[0C	-us	2G/]	.	2r	.	1.g	fi-
.	.	2G/	-li-	1c	fi-	.	.
.	.	1G	-us	.	.	.	.
.	.	.	.	4B\	.	2g/	-li-
.	.	.	.	4A/	.	.	.
=60	=60	=60	=60	=60	=60	=60	=60
0C]	.	0E	me-	4G/	.	1g	-us
.	.	.	.	4F/	.	.	.
.	.	.	.	4E/	-li-	.	.
.	.	.	.	4D/	.	.	.
.	.	.	.	2C/	-us	[1e	me-
.	.	.	.	[2c\	me-	.	.
=61	=61	=61	=61	=61	=61	=61	=61
0D	me-	0F	.	2c\]	.	2e/]	.
.	.	.	.	4B\	.	4d/	.
.	.	.	.	4A/	.	4c/	.
.	.	.	.	1B	.	2.d/	.
.	.	.	.	.	.	4c/	.
=62	=62	=62	=62	=62	=62	=62	=62
0C	-us	0E	-us	1c	-us	2.e/	-us
.	.	.	.	.	.	4d/	.
.	.	.	.	2r	.	[1g	.
.	.	.	.	2c\	di-	.	.
=63	=63	=63	=63	=63	=63	=63	=63
0r	.	0D	di-	2B\	-lec-	2g/]	.
.	.	.	.	2A/	.	4f#i/	di-
.	.	.	.	.	.	4e/	.
.	.	.	.	2.d\	.	2.f#i/	-lec-
.	.	.	.	4c\	.	4e/	.
=64	=64	=64	=64	=64	=64	=64	=64
1r	.	2.E/	lec-	4B\	.	0g	-tus,
.	.	.	.	4A/	.	.	.
.	.	.	.	2.G/	.	.	.
.	.	4D/	.	.	.	.	.
2r	.	[1G	.	.	.	.	.
.	.	.	.	4F/	.	.	.
[2C/	di-	.	.	4E/	.	.	.
.	.	.	.	4D/	.	.	.
=65	=65	=65	=65	=65	=65	=65	=65
4C/]	.	2G/]	.	4E/	.	0r	.
4BB/	.	.	.	4F/	.	.	.
4AA/	.	4F#i/	.	1D	.	.	.
4GG/	.	4E/	.	.	.	.	.
1AA	-lec-	1F#i	.	.	.	.	.
.	.	.	.	2C/	.	.	.
=66	=66	=66	=66	=66	=66	=66	=66
2GG/	-tus,	0G	-tus,	2D/	-tus,	1r	.
4C/	in	.	.	1E	.	.	.
4D\	.	.	.	.	.	.	.
4E\	.	.	.	.	.	1g	in
4F\	.	.	.	.	.	.	.
[2G\	te	.	.	[2C/	in	.	.
=67	=67	=67	=67	=67	=67	=67	=67
2G\]	.	0r	.	2C/]	.	0a	te
4F#i\	com-	.	.	1c	te	.	.
4E\	.	.	.	.	.	.	.
1F#i	-pla-	.	.	.	.	.	.
.	.	.	.	4B\	.	.	.
.	.	.	.	4A/	.	.	.
=68	=68	=68	=68	=68	=68	=68	=68
1G	-cu-	1r	.	2B\	.	0g	com-
.	.	.	.	2G/	com-	.	.
1GG	-it	1G	in	1d	-pla-	.	.
=69	=69	=69	=69	=69	=69	=69	=69
1r	.	0A	te	1c	-cu-	1e	-pla-
1D	mi-	.	.	1d	.	1f	.
=70	=70	=70	=70	=70	=70	=70	=70
2GG/	.	0G	com-	2.B\	-it	1g	-cu-
2.G\	.	.	.	.	.	.	.
.	.	.	.	4c\	.	.	.
.	.	.	.	2d\	.	[1g	-it
4F\	.	.	.	.	.	.	.
4E\	.	.	.	[2e\	mi-	.	.
4D\	.	.	.	.	.	.	.
=71	=71	=71	=71	=71	=71	=71	=71
2C/	.	1E	-pla-	4e\]	.	1g]	.
.	.	.	.	4d\	.	.	.
2E\	.	.	.	1c	.	.	.
1D	.	1F	.	.	.	1f	mi-
.	.	.	.	2B\	.	.	.
=72	=72	=72	=72	=72	=72	=72	=72
0C	-hi.	1G	-cu-	0c	-hi.	0e	-hi.
.	.	[1G	-it	.	.	.	.
=73	=73	=73	=73	=73	=73	=73	=73
0r	.	1G]	.	1B	Et	1r	.
.	.	1F	mi-	1A	.	1d	Et
=74	=74	=74	=74	=74	=74	=74	=74
0C	Et	0E	-hi.	2G/	ip-	1e	ip-
.	.	.	.	2.A/	.	.	.
.	.	.	.	.	.	1c	-se
.	.	.	.	4G/	.	.	.
.	.	.	.	2c\	-se	.	.
=75	=75	=75	=75	=75	=75	=75	=75
0D	ip-	0r	.	2B-i\	Ie-	1.f	Ie-
.	.	.	.	1A	.	.	.
.	.	.	.	2F/	.	4e/	.
.	.	.	.	.	.	4d/	.
=76	=76	=76	=76	=76	=76	=76	=76
1C	.	0G	Et	1c	.	1e	.
1E	.	.	.	2B\	.	1g	.
.	.	.	.	2c\	.	.	.
=77	=77	=77	=77	=77	=77	=77	=77
1D	.	0A	ip-	1d	.	1f	.
[1AA	-se	.	.	[1c	.	[1e	.
=78	=78	=78	=78	=78	=78	=78	=78
1AA]	.	0E	-se	2c\]	.	2e/]	.
.	.	.	.	2A/	.	2c/	.
1AA	Ie-	.	.	1A	-sus	1c	-sus
=79	=79	=79	=79	=79	=79	=79	=79
0C	-sus	1E	Ie-	0G	e-	1r	.
.	.	[1G	-sus	.	.	1e	e-
=80	=80	=80	=80	=80	=80	=80	=80
1C	e-	1G]	.	1.c	-rat	1e	-rat
1C	-rat	1G	e-	.	.	[1g	in-
.	.	.	.	2d\	in-	.	.
=81	=81	=81	=81	=81	=81	=81	=81
1C	in-	1G	-rat	1e	-ci-	2g/]	.
.	.	.	.	.	.	2f/	.
1C	-ci-	1G	in-	1c	.	1e	.
=82	=82	=82	=82	=82	=82	=82	=82
1BB	-pi-	1G	-ci-	1d	.	2.d/	-ci-
.	.	.	.	.	.	4e/	.
[1AA	-ens	1F	-pi-	1c	-pi-	2.f/	-pi-
.	.	.	.	.	.	4e/	.
=83	=83	=83	=83	=83	=83	=83	=83
1AA]	.	0E	-ens	1A	-pi-	0c	-ens
2r	.	.	.	1r	.	.	.
[2AA/	qua-	.	.	.	.	.	.
=84	=84	=84	=84	=84	=84	=84	=84
2AA/]	.	1E	qua-	0r	.	0r	.
2GG/	-si	.	.	.	.	.	.
2AA/	an-	1E	-si	.	.	.	.
[2C/	-no-	.	.	.	.	.	.
=85	=85	=85	=85	=85	=85	=85	=85
4C/]	.	1E	an-	0r	.	0r	.
4BB/	.	.	.	.	.	.	.
1E	.	.	.	.	.	.	.
.	.	1F	-no-	.	.	.	.
2D\	.	.	.	.	.	.	.
=86	=86	=86	=86	=86	=86	=86	=86
2E\	-rum	1E	-rum	0r	.	0r	.
1G	tri-	.	.	.	.	.	.
.	.	1D	tri-	.	.	.	.
2F\	.	.	.	.	.	.	.
=87	=87	=87	=87	=87	=87	=87	=87
2G\	-gin-	2E/	-gin-	0r	.	0r	.
2GG/	.	1G	.	.	.	.	.
1AA	.	.	.	.	.	.	.
.	.	2F#i/	.	.	.	.	.
=88	=88	=88	=88	=88	=88	=88	=88
0GG	-ta,	1G	-ta,	0r	.	1r	.
.	.	2r	.	.	.	1g	ut
.	.	[2G/	ut	.	.	.	.
=89	=89	=89	=89	=89	=89	=89	=89
1r	.	4G/]	.	1r	.	1g	pu-
.	.	4A/	.	.	.	.	.
.	.	4B\	.	.	.	.	.
.	.	4c\	.	.	.	.	.
[1G	ut	2B\	.	1d	ut	1g	-ta-
.	.	2G/	pu-	.	.	.	.
=90	=90	=90	=90	=90	=90	=90	=90
2G\]	.	2.B\	-ta-	1d	pu-	1g	-ba-
4F\	.	.	.	.	.	.	.
4E\	.	4c\	.	.	.	.	.
[1D	pu-	2.d\	-ba-	1d	-ta-	1a	.
.	.	4c\	.	.	.	.	.
=91	=91	=91	=91	=91	=91	=91	=91
2D\]	.	2.A/	.	1d	-ba-	0a	-tur,
4C/	.	.	.	.	.	.	.
4BB/	.	4B\	.	.	.	.	.
1AA	-ta-	[1c	.	1e	.	.	.
=92	=92	=92	=92	=92	=92	=92	=92
0C	-ba-	2c\]	.	0e	-tur,	1.g	fi-
.	.	4B\	.	.	.	.	.
.	.	4A/	.	.	.	.	.
.	.	2.G/	.	.	.	.	.
.	.	.	.	.	.	2g/	-li-
.	.	4A/	.	.	.	.	.
=93	=93	=93	=93	=93	=93	=93	=93
1GG	-tur,	1B	-tur,	1.d	fi-	1g	-us
[1D	fi-	[1A	fi-	.	.	[1f	Io-
.	.	.	.	2d\	-li-	.	.
=94	=94	=94	=94	=94	=94	=94	=94
2D\]	.	2A/]	.	1d	-us	1f]	.
2D\	-li-	2A/	-li-	.	.	.	.
[1AA	-us	[1A	-us	[1c	Io-	1e	.
=95	=95	=95	=95	=95	=95	=95	=95
1AA]	.	1A]	.	1c]	.	[0e	-seph.
1E	Io-	1G	Io-	1B	.	.	.
=96	=96	=96	=96	=96	=96	=96	=96
0E	-seph.	0G	-seph.	0B	-seph.	0e]	.
!!LO:LB:i:g=z
=97||	=97||	=97||	=97||	=97||	=97||	=97||	=97||
*>B	*	*>B	*	*>B	*	*>B	*
*M2/1	*	*M2/1	*	*M2/1	*	*M2/1	*
*met(C|)	*	*met(C|)	*	*met(C|)	*	*met(C|)	*
!!section: Secunda pars: Qui fuit Heli
!!!OMD: Secunda pars: Qui fuit Heli
0r	.	0r	.	1.d	Qui	0r	.
.	.	.	.	2d\	fu-	.	.
=98	=98	=98	=98	=98	=98	=98	=98
0r	.	1.G	Qui	1d	-it	0r	.
.	.	.	.	1B	He-	.	.
.	.	2G/	fu-	.	.	.	.
=99	=99	=99	=99	=99	=99	=99	=99
0r	.	1G	-it	1B	-li,	1.g	Qui
.	.	1E	He-	1r	.	.	.
.	.	.	.	.	.	2g/	fu-
=100	=100	=100	=100	=100	=100	=100	=100
0r	.	1E	-li,	1B	qui	1g	-it
.	.	1r	.	1c	fu-	1e	He-
=101	=101	=101	=101	=101	=101	=101	=101
0r	.	1E	qui	1B	-it	1e	-li,
.	.	1F	fu-	2r	.	1r	.
.	.	.	.	2A/	Ma-	.	.
=102	=102	=102	=102	=102	=102	=102	=102
0r	.	1E	-it	2.B\	-that,	1e	qui
.	.	.	.	4c\	.	.	.
.	.	2r	.	1d	.	1f	fu-
.	.	2D/	Ma-	.	.	.	.
=103	=103	=103	=103	=103	=103	=103	=103
0r	.	2.E/	-that,	2r	.	1e	-it
.	.	.	.	2.G/	qui	.	.
.	.	4F/	.	.	.	.	.
.	.	1G	.	.	.	2r	.
.	.	.	.	4A/	.	.	.
.	.	.	.	2B\	.	2d/	Ma-
=104	=104	=104	=104	=104	=104	=104	=104
0r	.	2r	.	2c\	fu-	2.e/	-that,
.	.	1G	qui	1B	.	.	.
.	.	.	.	.	.	4f/	.
.	.	.	.	.	.	1g	.
.	.	2E/	fu-	2G/	.	.	.
=105	=105	=105	=105	=105	=105	=105	=105
0r	.	2F/	.	2A/	-it	2r	.
.	.	2G/	-it	2B\	Le-	1g	qui
.	.	2E/	Le-	2G/	.	.	.
.	.	[2A/	.	[2c\	.	2e/	fu-
=106	=106	=106	=106	=106	=106	=106	=106
0r	.	2A/]	.	2c\]	.	2f/	.
.	.	2G/	.	2B\	.	2g/	-it
.	.	2.A/	.	1c	.	2e/	Le-
.	.	.	.	.	.	[2f/	.
.	.	4G/	.	.	.	.	.
=107	=107	=107	=107	=107	=107	=107	=107
0r	.	2E/	.	1C	-vi,	4f/]	.
.	.	.	.	.	.	4e/	.
.	.	2G/	.	.	.	1e	.
.	.	1F	.	1r	.	.	.
.	.	.	.	.	.	2d/	.
=108	=108	=108	=108	=108	=108	=108	=108
1.C	Qui	0E	-vi,	1r	.	0e	-vi,
.	.	.	.	[1G	qui	.	.
2D\	.	.	.	.	.	.	.
=109	=109	=109	=109	=109	=109	=109	=109
2E\	fu-	1r	.	2G/]	.	0r	.
2F\	.	.	.	2A/	.	.	.
1D	.	1F	qui	1B	fu-	.	.
=110	=110	=110	=110	=110	=110	=110	=110
1C	-it	2G/	fu-	1c	.	0r	.
.	.	1A	.	.	.	.	.
2r	.	.	.	1A	-it	.	.
[2C/	Mel-	4G/	.	.	.	.	.
.	.	4F/	.	.	.	.	.
=111	=111	=111	=111	=111	=111	=111	=111
2C/]	.	2E/	.	1G	.	0r	.
2BB/	.	2D/	-it	.	.	.	.
2C/	.	2E/	Mel-	2A/	Mel-	.	.
2BB/	.	2D/	.	2G/	.	.	.
=112	=112	=112	=112	=112	=112	=112	=112
2C/	.	2E/	.	1A	.	0r	.
2AA/	.	2F/	.	.	.	.	.
1GG	-chi,	2.G/	-chi,	1B	-chi,	.	.
.	.	4A/	.	.	.	.	.
=113	=113	=113	=113	=113	=113	=113	=113
1.G	qui	4B\	.	1r	.	0r	.
.	.	4c\	.	.	.	.	.
.	.	1d	.	.	.	.	.
.	.	.	.	1B	qui	.	.
4F\	.	2G/	qui	.	.	.	.
4E\	.	.	.	.	.	.	.
=114	=114	=114	=114	=114	=114	=114	=114
2D\	.	2A/	fu-	1d	fu-	0r	.
1G	fu-	2.B\	.	.	.	.	.
.	.	.	.	1e	.	.	.
.	.	4A/	.	.	.	.	.
2C/	-it	2c\	-it	.	.	.	.
=115	=115	=115	=115	=115	=115	=115	=115
2D\	Ian-	2B\	Ian-	2d\	.	0r	.
2AA/	.	2.A/	.	2c\	-it	.	.
2BB/	.	.	.	1d	lan-	.	.
.	.	4G/	.	.	.	.	.
2GG/	.	[2G/	.	.	.	.	.
=116	=116	=116	=116	=116	=116	=116	=116
1AA	.	2G/]	.	1c	.	0r	.
.	.	2F#i/	.	.	.	.	.
2.E\	-ne,	2.G/	-ne,	1B	-ne,	.	.
4F\	.	4A/	.	.	.	.	.
=117	=117	=117	=117	=117	=117	=117	=117
4G\	.	4B\	.	2r	.	0r	.
4A\	.	4c\	.	.	.	.	.
1G	.	1B	.	1e	qui	.	.
2F\	qui	2A/	qui	2d\	.	.	.
=118	=118	=118	=118	=118	=118	=118	=118
2E\	.	2G/	.	2c\	.	0r	.
1F	fu-	1A	fu-	1d	fu-	.	.
2E\	-it	2G/	-it	2c\	-it	.	.
=119	=119	=119	=119	=119	=119	=119	=119
2D\	Io-	2F/	Io-	2B\	Io-	0r	.
2C/	.	2.E/	.	1A	.	.	.
1BB	.	.	.	.	.	.	.
.	.	4D/	.	.	.	.	.
.	.	4D/	.	2G#i/	.	.	.
.	.	4C/	.	.	.	.	.
=120	=120	=120	=120	=120	=120	=120	=120
0AA	-seph,	0E	-seph,	1A	-seph,	0r	.
.	.	.	.	[1c	qui	.	.
=121	=121	=121	=121	=121	=121	=121	=121
1.C	qui	0r	.	2c\]	.	0r	.
.	.	.	.	2c\	fu-	.	.
.	.	.	.	1c	-it	.	.
2C/	fu-	.	.	.	.	.	.
=122	=122	=122	=122	=122	=122	=122	=122
1C	-it	1.G	qui	2r	.	0r	.
.	.	.	.	2C/	Ma-	.	.
2GG/	Ma-	.	.	2D/	-tha-	.	.
[2C/	.	2G/	fu-	2E/	-thi-	.	.
=123	=123	=123	=123	=123	=123	=123	=123
4C/]	.	1G	-it	1C	-e,	0r	.
4D\	.	.	.	.	.	.	.
4E\	.	.	.	.	.	.	.
4F\	.	.	.	.	.	.	.
2G\	.	1E	Ma-	2r	.	.	.
2C/	-tha-	.	.	2G/	qui	.	.
=124	=124	=124	=124	=124	=124	=124	=124
1F	-thi-	1D	-tha-	2A/	fu-	0r	.
.	.	.	.	2B\	.	.	.
1E	.	2.E/	-thi-	1G	-it	.	.
.	.	4F/	.	.	.	.	.
=125	=125	=125	=125	=125	=125	=125	=125
1C	-e,	1G	-e,	1c	A-	2r	.
.	.	.	.	.	.	2e/	qui
1r	.	1r	.	2A/	.	1f	fu-
.	.	.	.	[2B\	.	.	.
=126	=126	=126	=126	=126	=126	=126	=126
0r	.	0r	.	2B\]	.	2d/	-it
.	.	.	.	2G/	.	1e	A-
.	.	.	.	2A/	.	.	.
.	.	.	.	2F/	.	2d/	.
=127	=127	=127	=127	=127	=127	=127	=127
0r	.	0r	.	1G	.	2e/	.
.	.	.	.	.	.	1g	.
.	.	.	.	1A	.	.	.
.	.	.	.	.	.	2f#i/	.
=128	=128	=128	=128	=128	=128	=128	=128
2r	.	2r	.	0G	-mos,	1g	-mos,
1C	qui	2E/	qui	.	.	.	.
.	.	4E/	fu-	.	.	1r	.
.	.	4F/	.	.	.	.	.
2C/	fu-	4G/	.	.	.	.	.
.	.	4A/	.	.	.	.	.
=129	=129	=129	=129	=129	=129	=129	=129
2BB/	.	4B\	.	0r	.	0r	.
.	.	4A/	.	.	.	.	.
2AA/	-it	2.c\	.	.	.	.	.
2.C/	Na-	.	.	.	.	.	.
.	.	4B\	-it	.	.	.	.
.	.	[2A/	Na-	.	.	.	.
4D\	.	.	.	.	.	.	.
=130	=130	=130	=130	=130	=130	=130	=130
1BB	.	2A/]	.	1r	.	1r	.
.	.	2G#i/	.	.	.	.	.
1AA	-um,	1A	-um,	2r	.	2r	.
.	.	.	.	[2c\	qui	2e/	qui
=131	=131	=131	=131	=131	=131	=131	=131
0r	.	0r	.	2c\]	.	4e/	fu-
.	.	.	.	.	.	4f/	.
.	.	.	.	2c\	fu-	4g/	.
.	.	.	.	.	.	4a/	.
.	.	.	.	2B\	.	4b\	.
.	.	.	.	.	.	4a/	.
.	.	.	.	2A/	-it	[2cc\	.
=132	=132	=132	=132	=132	=132	=132	=132
0r	.	0r	.	2.c\	Hes-	4cc\]	.
.	.	.	.	.	.	4b\	-it
.	.	.	.	.	.	1a	Hes-
.	.	.	.	4d\	.	.	.
.	.	.	.	1B	.	.	.
.	.	.	.	.	.	2g#i/	.
=133	=133	=133	=133	=133	=133	=133	=133
2r	.	2r	.	0A	-li,	0a	-li,
2AA/	qui	1A	qui	.	.	.	.
4AA/	fu-	.	.	.	.	.	.
4BB/	.	.	.	.	.	.	.
4C/	.	2A/	fu-	.	.	.	.
4D\	.	.	.	.	.	.	.
=134	=134	=134	=134	=134	=134	=134	=134
4E\	.	2G/	.	0r	.	0r	.
4D\	.	.	.	.	.	.	.
2.G\	.	2E/	-it	.	.	.	.
.	.	2.G/	Na-	.	.	.	.
4F\	-it	.	.	.	.	.	.
[2E\	Na-	.	.	.	.	.	.
.	.	4A/	.	.	.	.	.
=135	=135	=135	=135	=135	=135	=135	=135
2E\]	.	1F	.	1r	.	1r	.
2D\	.	.	.	.	.	.	.
1E	-ge,	1E	-ge,	2r	.	2r	.
.	.	.	.	[2e\	qui	[2g/	qui
=136	=136	=136	=136	=136	=136	=136	=136
0r	.	0r	.	2e\]	.	2g/]	.
.	.	.	.	2d\	.	2f/	.
.	.	.	.	2c\	.	2e/	.
.	.	.	.	[2d\	fu-	[2f/	fu-
=137	=137	=137	=137	=137	=137	=137	=137
0r	.	0r	.	2d\]	.	2f/]	.
.	.	.	.	2c\	.	2e/	.
.	.	.	.	2B\	-it	2d/	.
.	.	.	.	[2A/	Ma-	2c/	-it
=138	=138	=138	=138	=138	=138	=138	=138
1r	.	0r	.	4A/]	.	1B	Ma-
.	.	.	.	4G#i/	.	.	.
.	.	.	.	2G#i/	.	.	.
2r	.	.	.	2.A/	-ath,	[1A	-ath,
[2AA/	qui	.	.	.	.	.	.
.	.	.	.	4B\	.	.	.
=139	=139	=139	=139	=139	=139	=139	=139
1AA]	.	0r	.	2c\	.	1A]	.
.	.	.	.	4B\	qui	.	.
.	.	.	.	4A/	.	.	.
2.C/	fu-	.	.	2G/	fu-	1r	.
.	.	.	.	2c\	.	.	.
4BB/	.	.	.	.	.	.	.
=140	=140	=140	=140	=140	=140	=140	=140
2GG/	-it	0r	.	2d\	-it	0r	.
2C/	Ma-	.	.	2.e\	Ma-	.	.
2E\	-tha-	.	.	.	.	.	.
.	.	.	.	4d\	.	.	.
2F\	.	.	.	[2c\	-tha-	.	.
=141	=141	=141	=141	=141	=141	=141	=141
1D	-thi-	0r	.	2c\]	.	1r	.
.	.	.	.	2B\	-thi-	.	.
[1C	-e,	.	.	[1c	-e,	2r	.
.	.	.	.	.	.	[2e/	qui
=142	=142	=142	=142	=142	=142	=142	=142
1C]	.	1G	qui	1c]	.	2e/]	.
.	.	.	.	.	.	2e/	fu-
1r	.	2.E/	fu-	2r	.	2.g/	.
.	.	.	.	[2G/	qui	.	.
.	.	4F/	.	.	.	4f/	.
=143	=143	=143	=143	=143	=143	=143	=143
0r	.	1G	-it	4G/]	.	2d/	-it
.	.	.	.	4A/	.	.	.
.	.	.	.	2B\	.	2.g/	Se-
.	.	1r	.	2c\	fu-	.	.
.	.	.	.	.	.	4a/	.
.	.	.	.	2G/	-it	4b\	.
.	.	.	.	.	.	4cc\	.
=144	=144	=144	=144	=144	=144	=144	=144
0r	.	2r	.	2.c\	Se-	2a/	.
.	.	2G/	qui	.	.	1g	.
.	.	.	.	4d\	.	.	.
.	.	2.E/	fu-	1e	.	.	.
.	.	.	.	.	.	[2cc\	.
.	.	4F/	.	.	.	.	.
=145	=145	=145	=145	=145	=145	=145	=145
0r	.	1G	-it	1d	-me-	2cc\]	.
.	.	.	.	.	.	2b\	-me-
.	.	1r	.	2.c\	-i,	2cc\	-i,
.	.	.	.	.	.	4c/	qui
.	.	.	.	4B\	.	4d/	.
=146	=146	=146	=146	=146	=146	=146	=146
0r	.	1G	qui	4c\	.	4e/	.
.	.	.	.	4d\	.	4f/	.
.	.	.	.	1e	.	1g	.
.	.	2E/	fu-	.	.	.	.
.	.	2F/	.	4d\	qui	2f/	fu-
.	.	.	.	4c\	.	.	.
=147	=147	=147	=147	=147	=147	=147	=147
*	*	*	*	*M2/1	*	*	*
*	*	*	*	*met(3/2)	*	*	*
2r	.	1G	.	3B\	fu-	2d/	-it
.	.	.	.	3A/	.	.	.
2GG/	qui	.	.	.	.	2.g/	Io-
.	.	.	.	3B\	.	.	.
2.C/	fu-	[1G	-it	3E/	.	.	.
.	.	.	.	.	.	4e/	.
.	.	.	.	3F/	.	.	.
.	.	.	.	.	.	[2g/	.
.	.	.	.	3G/	.	.	.
4D\	.	.	.	.	.	.	.
=148	=148	=148	=148	=148	=148	=148	=148
*	*	*	*	*M2/1	*	*	*
*	*	*	*	*met(C|)	*	*	*
2E\	.	1G]	.	2C/	-it	4g/]	.
.	.	.	.	.	.	4f/	.
2C/	-it	.	.	1c	Io-	2e/	.
1D	Io-	[1F	Io-	.	.	1d	.
.	.	.	.	2B\	.	.	.
=149	=149	=149	=149	=149	=149	=149	=149
0AA	-seph,	2F/]	.	0c	-seph,	0a	.
.	.	2E/	.	.	.	.	.
.	.	1E	-seph,	.	.	.	.
=150	=150	=150	=150	=150	=150	=150	=150
1C	qui	2r	.	2r	.	1g	-seph,
.	.	2E/	qui	1c	qui	.	.
1E	fu-	2.G/	fu-	.	.	2r	.
.	.	.	.	2B\	fu-	2g/	qui
.	.	4F/	.	.	.	.	.
=151	=151	=151	=151	=151	=151	=151	=151
1F	.	2D/	-it	1A	-it	2a/	fu-
.	.	2.A/	Iu-	.	.	2cc\	-it
[1D	-it	.	.	[1d	Iu-	2b\	Iu-
.	.	4G/	.	.	.	.	.
.	.	2A/	.	.	.	[2a/	.
=152	=152	=152	=152	=152	=152	=152	=152
2D\]	.	2B\	.	2d\]	.	4a/]	.
.	.	.	.	.	.	4d/	.
2C/	.	2c\	.	2e\	.	1g	.
1D	Iu-	1A	.	1d	.	.	.
.	.	.	.	.	.	2f#i/	.
=153	=153	=153	=153	=153	=153	=153	=153
1E	-da,	0G	-da,	2B\	-da,	[0g	-da,
.	.	.	.	2c\	qui	.	.
1r	.	.	.	2B\	fu-	.	.
.	.	.	.	[2e\	.	.	.
=154	=154	=154	=154	=154	=154	=154	=154
1E	qui	0r	.	4e\]	.	1g]	.
.	.	.	.	4d\	.	.	.
.	.	.	.	1c	.	.	.
1G	fu-	.	.	.	.	2r	.
.	.	.	.	2B\	.	[2e/	qui
=155	=155	=155	=155	=155	=155	=155	=155
1A	.	0r	.	2c\	-it	4e/]	.
.	.	.	.	.	.	4d/	.
.	.	.	.	2A/	Io-	2f/	fu-
2G\	.	.	.	2.B\	-han-	2e/	-it
2E\	-it	.	.	.	.	[2g/	Io-
.	.	.	.	4A/	.	.	.
=156	=156	=156	=156	=156	=156	=156	=156
2G\	Io-	1r	.	2B\	.	4g/]	.
.	.	.	.	.	.	4f/	.
2A\	.	.	.	1c	.	1e	-han-
1F	-han-	1A	qui	.	.	.	.
.	.	.	.	4B\	.	2d/	.
.	.	.	.	4A/	.	.	.
=157	=157	=157	=157	=157	=157	=157	=157
1E	-na,	2.B\	fu-	1.G	.	0e	-na,
.	.	4A/	.	.	.	.	.
1r	.	2B\	.	.	.	.	.
.	.	[2c\	.	2C/	.	.	.
=158	=158	=158	=158	=158	=158	=158	=158
1E	qui	2c\]	.	1C	-na	0r	.
.	.	4B\	.	.	.	.	.
.	.	4A/	.	.	.	.	.
2D\	.	2B\	-it	2r	.	.	.
2C/	.	[2A/	Re-	2E/	qui	.	.
=159	=159	=159	=159	=159	=159	=159	=159
1D	fu-	2A/]	.	1F	fu-	0r	.
.	.	4G/	.	.	.	.	.
.	.	4F/	.	.	.	.	.
1C	.	1E	.	2G/	.	.	.
.	.	.	.	2E/	-it	.	.
=160	=160	=160	=160	=160	=160	=160	=160
2BB/	.	2D/	.	2G/	Re-	0r	.
2AA/	-it	2E/	.	2A/	.	.	.
1GG	Re-	1G	.	2B\	.	.	.
.	.	.	.	2d\	.	.	.
=161	=161	=161	=161	=161	=161	=161	=161
0AA	-sa,	1E	-sa,	1c	-sa,	0r	.
.	.	2r	.	2A/	qui	.	.
.	.	2A/	qui	[2c\	fu-	.	.
=162	=162	=162	=162	=162	=162	=162	=162
1.C	qui	2G/	fu-	2c\]	.	1r	.
.	.	1c	.	4B\	.	.	.
.	.	.	.	4A/	.	.	.
.	.	.	.	2G/	-it	[1g	qui
2C/	fu-	4B\	.	2C/	Zo-	.	.
.	.	4A/	.	.	.	.	.
=163	=163	=163	=163	=163	=163	=163	=163
0C	-it	2G/	-it	2.E/	-ro-	2g/]	.
.	.	2C/	Zo-	.	.	2g/	fu-
.	.	.	.	4F/	-ba-	.	.
.	.	2.E/	-ro-	1G	-bel,	1g	-it
.	.	4F/	-ba-	.	.	.	.
=164	=164	=164	=164	=164	=164	=164	=164
0r	.	2G/	-bel,	2C/	Zo-	2r	.
.	.	4C/	Zo-	1c	.	1e	Zo-
.	.	4D/	.	.	.	.	.
.	.	4E/	.	.	.	.	.
.	.	4F/	.	.	.	.	.
.	.	2G/	.	2B\	.	2d/	.
=165	=165	=165	=165	=165	=165	=165	=165
0r	.	2C/	-ro-	4c\	-ro-	2e/	-ro-
.	.	.	.	4B\	.	.	.
.	.	2E/	-ba-	4A/	.	1g	.
.	.	.	.	4G/	.	.	.
.	.	1D	-bel,	1A	-ba-	.	.
.	.	.	.	.	.	2f#i/	-ba-
=166	=166	=166	=166	=166	=166	=166	=166
2r	.	2r	.	0G	-bel,	0g	-bel,
1C	Zo-	1E	Zo-	.	.	.	.
2BB/	.	2D/	.	.	.	.	.
=167	=167	=167	=167	=167	=167	=167	=167
4C/	-ro-	2E/	-ro-	0r	.	0r	.
4BB/	.	.	.	.	.	.	.
4AA/	.	1G	.	.	.	.	.
4GG/	.	.	.	.	.	.	.
1AA	-ba-	.	.	.	.	.	.
.	.	2F#i/	-ba-	.	.	.	.
=168	=168	=168	=168	=168	=168	=168	=168
2GG/	-bel,	2G/	-bel,	2r	.	0r	.
2.C/	qui	4C/	qui	1c	Sa-	.	.
.	.	4D/	.	.	.	.	.
.	.	4E/	.	.	.	.	.
4D\	.	4F/	.	.	.	.	.
4E\	.	2G/	.	2B\	.	.	.
4F\	.	.	.	.	.	.	.
=169	=169	=169	=169	=169	=169	=169	=169
4E\	fu-	2C/	fu-	4c\	-la-	0r	.
4D\	.	.	.	4B\	.	.	.
1G	.	2E/	.	4A/	.	.	.
.	.	.	.	4G/	.	.	.
.	.	1D	-it	1A	-thi-	.	.
2F#i\	.	.	.	.	.	.	.
=170	=170	=170	=170	=170	=170	=170	=170
2G\	-it	2r	.	1G	-el,	2r	.
4C/	Sa-	1c	Sa-	.	.	1e	Sa-
4D\	.	.	.	.	.	.	.
4E\	.	.	.	1r	.	.	.
4F\	.	.	.	.	.	.	.
2G\	.	2B\	.	.	.	2d/	.
=171	=171	=171	=171	=171	=171	=171	=171
2C/	-la-	4c\	-la-	0r	.	2e/	-la-
.	.	4B\	.	.	.	.	.
2E\	.	4A/	.	.	.	1g	.
.	.	4G/	.	.	.	.	.
1D	-thi-	1A	-thi-	.	.	.	.
.	.	.	.	.	.	2f#i/	-thi-
=172	=172	=172	=172	=172	=172	=172	=172
2.E\	-el,	1G	-el,	1r	.	2g/	-el,
.	.	.	.	.	.	2.e/	qui
4F\	.	.	.	.	.	.	.
2G\	.	1r	.	2.E/	qui	.	.
.	.	.	.	.	.	4f/	.
2G\	qui	.	.	.	.	2g/	.
.	.	.	.	4F/	.	.	.
=173	=173	=173	=173	=173	=173	=173	=173
2G\	fu-	2.E/	qui	2G/	.	2g/	fu-
4C/	.	.	.	2G/	fu-	2.g/	-it
4D\	.	4F/	.	.	.	.	.
4E\	.	2G/	fu-	2.G/	-it	.	.
4F\	.	.	.	.	.	4f/	.
[2G\	.	2G/	-it	.	.	2e/	.
.	.	.	.	4A/	.	.	.
=174	=174	=174	=174	=174	=174	=174	=174
2G\]	.	1G	Ne-	4B\	.	2d/	Ne-
.	.	.	.	4A/	.	.	.
2C/	-it	.	.	1c	Ne-	1e	.
1D	Ne-	1F	.	.	.	.	.
.	.	.	.	2B\	.	2d/	.
=175	=175	=175	=175	=175	=175	=175	=175
*M2/1	*	*	*	*M2/1	*	*	*
*met(O/3)	*	*	*	*met(O/3)	*	*	*
3%2.C	-ri,	1E	.	3%2.c	-ri,	0e	-ri,
3D\	.	1E	-ri,	3B\	.	.	.
3%2E	qui	.	.	3%2G	.	.	.
=176	=176	=176	=176	=176	=176	=176	=176
*	*	*M2/1	*	*	*	*	*
*	*	*met(O/3)	*	*	*	*	*
3%2F	fu-	3%2.D	qui	3%4A	qui	0r	.
3%4D	-it	.	.	.	.	.	.
.	.	3E/	fu-	.	.	.	.
.	.	3%2F	-it	3%2B	fu-	.	.
=177	=177	=177	=177	=177	=177	=177	=177
3%2C	Mel-	3%2G	Mel-	3%2c	.	0r	.
3%4D	.	3%2.F	.	3B\	-it	.	.
.	.	.	.	3%2A	Mel-	.	.
.	.	6E/	.	6G/	.	.	.
.	.	6D/	.	6F/	.	.	.
=178	=178	=178	=178	=178	=178	=178	=178
3%4E	-chi,	3%2C	-chi,	3%2G	.	0r	.
.	.	3%2.G	qui	3%2C	-chi,	.	.
3%2r	.	.	.	[3%2E	qui	.	.
.	.	3A/	.	.	.	.	.
=179	=179	=179	=179	=179	=179	=179	=179
3%2.E	qui	3%2B	.	3E/]	.	0r	.
.	.	.	.	3F/	.	.	.
.	.	3%2c	fu-	3%2G	.	.	.
3F\	.	.	.	.	.	.	.
3%2G	.	3%2B	.	3%2E	fu-	.	.
=180	=180	=180	=180	=180	=180	=180	=180
3%2A	fu-	3%2A	.	3%2F	.	0r	.
3%2G	.	3%2B	.	3%2G	.	.	.
3%2F	-it	3%2c	-it	3%2A	-it	.	.
=181	=181	=181	=181	=181	=181	=181	=181
3%2G	Ad-	3%2C	Ad-	3%2E	Ad-	0r	.
3%2F	.	3%2D	.	3%2F	.	.	.
3%2E	.	3%2E	-di,	3%2G	.	.	.
=182	=182	=182	=182	=182	=182	=182	=182
3%4E	-di,	3%2.G	qui	3%2C	-di,	0r	.
.	.	.	.	3%2.G	qui	.	.
.	.	3A/	.	.	.	.	.
3%2r	.	3%2B	.	.	.	.	.
.	.	.	.	3A/	.	.	.
=183	=183	=183	=183	=183	=183	=183	=183
3%2.E	qui	3%2.G	fu-	3%2B	.	0r	.
.	.	.	.	3%2.c	fu-	.	.
3D\	.	3F/	.	.	.	.	.
3%2C	.	3.E/	.	.	.	.	.
.	.	.	.	3B\	.	.	.
.	.	6D/	.	.	.	.	.
=184	=184	=184	=184	=184	=184	=184	=184
3%2D	fu-	3%2F	-it	3%2A	-it	0r	.
3%2C	.	3%2E	Co-	3%2.e	Co-	.	.
3%2BB	-it	3%2G	.	.	.	.	.
.	.	.	.	3d\	.	.	.
=185	=185	=185	=185	=185	=185	=185	=185
3%4AA	Co-	3%2A	.	3%2c	.	0r	.
.	.	3.E/	.	3%4B	.	.	.
.	.	6F/	.	.	.	.	.
3%2GG#i	.	3%2G	.	.	.	.	.
=186	=186	=186	=186	=186	=186	=186	=186
*M2/1	*	*M2/1	*	*M2/1	*	*	*
*met(C|)	*	*met(C|)	*	*met(C|)	*	*	*
1AA	-sam,	1C	-sam,	1A	-sam,	0r	.
2.C/	qui	2.E/	qui	1r	.	.	.
4D\	.	4F/	.	.	.	.	.
=187	=187	=187	=187	=187	=187	=187	=187
2E\	.	2G/	.	1.c	qui	0r	.
2F\	fu-	2A/	fu-	.	.	.	.
2E\	-it	2G/	-it	.	.	.	.
[2F\	Hel-	[2A/	Hel-	2c\	fu-	.	.
=188	=188	=188	=188	=188	=188	=188	=188
4F\]	.	4A/]	.	1c	-it	0r	.
4E\	.	4G/	.	.	.	.	.
2C/	.	2E/	.	.	.	.	.
2D\	-ma-	2F/	-ma-	1A	Hel-	.	.
[2C/	.	[2E/	.	.	.	.	.
=189	=189	=189	=189	=189	=189	=189	=189
4C/]	.	4E/]	.	2.G/	-ma-	0r	.
4AA/	.	4D/	.	.	.	.	.
2BB/	.	2D/	.	.	.	.	.
.	.	.	.	8A/L	.	.	.
.	.	.	.	8G/J	.	.	.
2C/	.	2E/	.	4A/	.	.	.
.	.	.	.	4G/	.	.	.
2E\	.	[2G/	.	[2c\	.	.	.
=190	=190	=190	=190	=190	=190	=190	=190
1D	.	4G/]	.	2c\]	.	0r	.
.	.	4E/	.	.	.	.	.
.	.	2F/	.	2B\	.	.	.
1C	-dam,	2G/	-dam,	1c	-dam,	.	.
.	.	[2A/	qui	.	.	.	.
=191	=191	=191	=191	=191	=191	=191	=191
2r	.	4A/]	.	1r	.	0r	.
.	.	4G/	.	.	.	.	.
1D	qui	4F/	.	.	.	.	.
.	.	4E/	.	.	.	.	.
.	.	2F/	.	2r	.	.	.
2C/	.	2E/	.	[2A/	qui	.	.
=192	=192	=192	=192	=192	=192	=192	=192
2D\	fu-	2F/	fu-	2A/]	.	0r	.
2E\	.	2G/	-it	2G/	.	.	.
1F	-it	4D/	Her-	2.A/	fu-	.	.
.	.	4E/	.	.	.	.	.
.	.	4F/	.	.	.	.	.
.	.	4G/	.	4B\	.	.	.
=193	=193	=193	=193	=193	=193	=193	=193
2r	.	2.A/	.	1c	-it	0r	.
1F	Her,	.	.	.	.	.	.
.	.	4G/	.	.	.	.	.
.	.	2A/	.	2r	.	.	.
2E\	.	2G/	qui	[2c\	Her,	.	.
=194	=194	=194	=194	=194	=194	=194	=194
2F\	.	2A/	fu-	2c\]	.	0r	.
2D\	qui	2F/	.	2B\	.	.	.
2C/	fu-	2G/	.	2c\	.	.	.
[2F\	.	2D/	-it	2A/	qui	.	.
=195	=195	=195	=195	=195	=195	=195	=195
2F\]	.	4E/	Ie-	2G/	fu-	0r	.
.	.	4F/	.	.	.	.	.
2E\	-it	4G/	.	2c\	.	.	.
.	.	4A/	.	.	.	.	.
2D\	Ie-	2F/	.	2B\	-it	.	.
2C/	.	[2E/	.	[2A/	Ie-	.	.
=196	=196	=196	=196	=196	=196	=196	=196
1BB	.	2E/]	.	2A/]	.	1r	.
.	.	2D/	.	2G#i/	.	.	.
[1AA	-su,	[1E	-su,	1A	-su,	2r	.
.	.	.	.	.	.	[2c/	qui
=197	=197	=197	=197	=197	=197	=197	=197
1AA]	.	1E]	.	1r	.	4c/]	.
.	.	.	.	.	.	4d/	.
.	.	.	.	.	.	4e/	.
.	.	.	.	.	.	4f/	.
1r	.	2r	.	1c	qui	2g/	.
.	.	2A/	qui	.	.	2c/	.
=198	=198	=198	=198	=198	=198	=198	=198
0r	.	2A/	fu-	1e	fu-	2.cc\	fu-
.	.	2A/	-it	.	.	.	.
.	.	.	.	.	.	4b\	.
.	.	[1d	He-	[1f	.	4a/	.
.	.	.	.	.	.	4g/	.
.	.	.	.	.	.	[2b\	.
=199	=199	=199	=199	=199	=199	=199	=199
0r	.	2d\]	.	2f\]	.	2b\]	.
.	.	2c\	.	2e\	-it	2a/	-it
.	.	2B\	.	2d\	He-	2g/	He-
.	.	2A/	-li-	2c\	-li-	[2a/	-li-
=200	=200	=200	=200	=200	=200	=200	=200
0r	.	1B	-e-	1d	-e-	2a/]	.
.	.	.	.	.	.	2g#i/	-e-
.	.	2.A/	-zer,	1e	-zer,	2a/	-zer,
.	.	.	.	.	.	2A/	qui
.	.	4G/	.	.	.	.	.
=201	=201	=201	=201	=201	=201	=201	=201
0r	.	4A/	.	2r	.	2.c/	fu-
.	.	4B\	.	.	.	.	.
.	.	1c	.	2A/	qui	.	.
.	.	.	.	.	.	4d/	.
.	.	.	.	2.c\	fu-	2.e/	.
.	.	4B\	qui	.	.	.	.
.	.	4A/	.	4d\	.	4f/	.
=202	=202	=202	=202	=202	=202	=202	=202
0r	.	2G/	fu-	2e\	.	2g/	.
.	.	2D/	-it	2f\	.	2a/	.
.	.	2E/	Io-	2e\	-it	2g/	.
.	.	2D/	.	[2f\	Io-	2f/	-it
=203	=203	=203	=203	=203	=203	=203	=203
0r	.	2E/	.	4f\]	.	1g	Io-
.	.	.	.	4e\	.	.	.
.	.	2C/	.	1e	.	.	.
.	.	2.D/	.	.	.	1f	.
.	.	.	.	2d\	.	.	.
.	.	4C/	.	.	.	.	.
=204	=204	=204	=204	=204	=204	=204	=204
0r	.	2AA/	-rim,	1e	-rim,	2e/	-rim,
.	.	1A	qui	.	.	2.c/	qui
.	.	.	.	2r	.	.	.
.	.	.	.	.	.	4d/	.
.	.	4G/	.	[2e\	qui	4e/	.
.	.	4F/	.	.	.	4f/	.
=205	=205	=205	=205	=205	=205	=205	=205
0r	.	2E/	.	2e\]	.	2.g/	fu-
.	.	2.G/	fu-	4d\	.	.	.
.	.	.	.	4c\	.	4f/	.
.	.	.	.	2B\	.	4d/	.
.	.	4F/	.	.	.	4e/	.
.	.	4D/	.	[2d\	fu-	4f/	.
.	.	4E/	.	.	.	4g/	.
=206	=206	=206	=206	=206	=206	=206	=206
0r	.	4F/	.	4d\]	.	4a/	.
.	.	4G/	.	4c\	.	4b\	.
.	.	2.A/	.	4A/	.	2.cc\	.
.	.	.	.	4B\	.	.	.
.	.	.	.	4c\	.	.	.
.	.	4G/	.	4d\	.	4b\	-it
.	.	2E/	-it	2e\	-it	[2b\	Ma-
=207	=207	=207	=207	=207	=207	=207	=207
0r	.	1F	Ma-	1A	Ma-	4b\]	.
.	.	.	.	.	.	4a/	.
.	.	.	.	.	.	2a/	-that,
.	.	1E	-that,	1B	.	4g/	.
.	.	.	.	.	.	4f/	.
.	.	.	.	.	.	8g/L	.
.	.	.	.	.	.	8f/	.
.	.	.	.	.	.	8e/	.
.	.	.	.	.	.	8d/J	.
=208	=208	=208	=208	=208	=208	=208	=208
*	*	*M2/1	*	*M2/1	*	*	*
*	*	*met(O/3)	*	*met(O/3)	*	*	*
0r	.	3%2.F	qui	3%2A	-that,	1c	.
.	.	.	.	3%2.c	qui	.	.
.	.	3E/	.	.	.	1r	.
.	.	3F/	.	.	.	.	.
.	.	3E/	.	3d\	.	.	.
=209	=209	=209	=209	=209	=209	=209	=209
*	*	*	*	*	*	*M2/1	*
*	*	*	*	*	*	*met(O/3)	*
0r	.	3%2C	.	3%4e	fu-	3%4g	qui
.	.	3%2c	fu-	.	.	.	.
.	.	3%2B	-it	3%2d	-it	3%2g	fu-
=210	=210	=210	=210	=210	=210	=210	=210
0r	.	3%2.c	Le-	3%2.e	Le-	3%4g	-it
.	.	3B\	.	3d\	.	.	.
.	.	3%2G	.	3%2B	.	3%2e	Le-
=211	=211	=211	=211	=211	=211	=211	=211
0r	.	3%4A	-vi,	3%4c	-vi,	3%4.e	-vi,
.	.	3%2G	qui	3%2B	qui	.	.
=212	=212	=212	=212	=212	=212	=212	=212
0r	.	3%2.A	fu-	3%2.c	fu-	3%4.r	.
.	.	3G/	.	3B\	.	.	.
.	.	3%2E	-it	3%2G	-it	.	.
=213	=213	=213	=213	=213	=213	=213	=213
0r	.	3%4c	Si-	3%4A	Si-	3%2e	qui
.	.	.	.	.	.	3%2f	fu-
.	.	3%2B	.	3%2G	.	[3%2e	-it
=214	=214	=214	=214	=214	=214	=214	=214
0r	.	3%2.c	.	3%2.A	.	3e/]	.
.	.	.	.	.	.	3d/	.
.	.	.	.	.	.	3.e/	Si-
.	.	3B\	.	3G/	.	.	.
.	.	.	.	.	.	6d/	.
.	.	3%2G	.	3%2E	-me-	3e/	.
.	.	.	.	.	.	3f/	.
=215	=215	=215	=215	=215	=215	=215	=215
0r	.	3%2B	.	3%2E	-on,	3%2.g	.
.	.	3%4A	-me-	3%2C	.	.	.
.	.	.	.	.	.	6f#i/	.
.	.	.	.	.	.	6e/	.
.	.	.	.	3%2D	.	3%2f#i	-me-
=216	=216	=216	=216	=216	=216	=216	=216
0r	.	3%4G	-on,	3%2.d	qui	3%4.g	-on,
.	.	.	.	3B\	.	.	.
.	.	3%2r	.	3c\	.	.	.
.	.	.	.	3d\	.	.	.
=217	=217	=217	=217	=217	=217	=217	=217
0r	.	3%2.G	qui	3%2.B	fu-	3%4.r	.
.	.	3E/	.	3G/	.	.	.
.	.	3F/	.	3A/	.	.	.
.	.	3G/	.	3B\	.	.	.
=218	=218	=218	=218	=218	=218	=218	=218
0r	.	3%2.E	fu-	3%2G	-it	3%2.g	qui
.	.	.	.	3%2.c	Iu-	.	.
.	.	3C/	.	.	.	3e/	.
.	.	3D/	.	.	.	3f/	.
.	.	3E/	.	3B\	.	3g/	.
=219	=219	=219	=219	=219	=219	=219	=219
0r	.	3%2C	-it	3%2.c	.	3%2e	fu-
.	.	3%4F	Iu-	.	.	3%2.f	.
.	.	.	.	3B\	.	.	.
.	.	.	.	3%2A	.	.	.
.	.	.	.	.	.	3e/	-it
=220	=220	=220	=220	=220	=220	=220	=220
0r	.	3%2G	.	3%2G	.	3%4e	Iu-
.	.	3%2A	.	3%4F	.	.	.
.	.	3%2D	.	.	.	3%2d	.
=221	=221	=221	=221	=221	=221	=221	=221
*	*	*M2/1	*	*M2/1	*	*M2/1	*
*	*	*met(C|)	*	*met(C|)	*	*met(C|)	*
1r	.	1G	-da,	1E	-da,	0e	-da,
1C	qui	2r	.	2C/	qui	.	.
.	.	2C/	qui	[2G/	fu-	.	.
=222	=222	=222	=222	=222	=222	=222	=222
1C	fu-	1E	fu-	2G/]	.	0r	.
.	.	.	.	2.A/	-it	.	.
[1D	.	2.F/	-it	.	.	.	.
.	.	.	.	4F/	.	.	.
.	.	.	.	[2B-i\	Io-	.	.
.	.	4E/	.	.	.	.	.
=223	=223	=223	=223	=223	=223	=223	=223
2D\]	.	4F/	Io-	4B-i\]	.	2r	.
.	.	4E/	.	4A/	.	.	.
2C/	.	1E	.	1A	.	2a/	qui
1BB	.	.	.	.	.	1b	fu-
.	.	2D/	.	2G/	.	.	.
=224	=224	=224	=224	=224	=224	=224	=224
1AA	-it	1E	-seph,	1A	-seph,	2.cc\	-it
.	.	.	.	.	.	4b\	.
1E	Io-	1r	.	2r	.	2g/	Io-
.	.	.	.	2B\	qui	2b\	.
=225	=225	=225	=225	=225	=225	=225	=225
1F	.	1r	.	1d	fu-	1a	-seph,
1E	-seph,	2r	.	2.e\	.	2g/	qui
.	.	2E/	qui	.	.	[2cc\	fu-
.	.	.	.	4d\	.	.	.
=226	=226	=226	=226	=226	=226	=226	=226
0r	.	1G	fu-	2B\	.	4cc\]	.
.	.	.	.	.	.	4b\	.
.	.	.	.	2d\	-it	2.b\	-it
.	.	2.A/	.	1c	Io-	.	.
.	.	.	.	.	.	4a/	.
.	.	.	.	.	.	[2a/	Io-
.	.	4G/	.	.	.	.	.
=227	=227	=227	=227	=227	=227	=227	=227
0r	.	2E/	.	1B	-na,	2a/]	.
.	.	2G/	-it	.	.	2g/	.
.	.	1F	Io-	2r	.	[1a	-na,
.	.	.	.	2A/	qui	.	.
=228	=228	=228	=228	=228	=228	=228	=228
2r	.	1E	-na,	1.c	fu-	1a]	.
2AA/	qui	.	.	.	.	.	.
[1C	fu-	2r	.	.	.	1r	.
.	.	2E/	qui	4B\	.	.	.
.	.	.	.	4A/	.	.	.
=229	=229	=229	=229	=229	=229	=229	=229
2C/]	.	2.G/	fu-	2G/	.	2r	.
4BB/	.	.	.	2c\	.	2e/	qui
4AA/	.	4A/	.	.	.	.	.
2GG/	.	2B\	.	2d\	.	2.g/	fu-
[2C/	.	[2c\	.	[2e\	.	.	.
.	.	.	.	.	.	4f/	.
=230	=230	=230	=230	=230	=230	=230	=230
2C/]	.	4c\]	.	2e\]	.	4e/	.
.	.	4B\	.	.	.	4d/	.
2D\	.	2A/	.	2d\	.	2.f/	.
2E\	-it	2G/	-it	2B\	-it	.	.
.	.	.	.	.	.	4e/	-it
2C/	He-	2A/	He-	2c\	He-	2e/	He-
=231	=231	=231	=231	=231	=231	=231	=231
2D\	-li-	2F/	-li-	4B\	-li-	2d/	-li-
.	.	.	.	4A/	.	.	.
2AA/	.	1E	-a-	1A	-a-	2c/	.
1BB	-a-	.	.	.	.	1d	-a-
.	.	2D/	.	2G#i/	.	.	.
=232	=232	=232	=232	=232	=232	=232	=232
2.AA/	-chim,	0E	-chim,	1A	-chim,	1c	-chim,
4BB/	.	.	.	.	.	.	.
2.C/	.	.	.	2r	.	1r	.
.	.	.	.	[2E/	qui	.	.
4D\	.	.	.	.	.	.	.
=233	=233	=233	=233	=233	=233	=233	=233
2.E\	qui	0r	.	4E/]	.	1.g	qui
.	.	.	.	4F/	.	.	.
.	.	.	.	2G/	.	.	.
4F\	.	.	.	.	.	.	.
1G	fu-	.	.	2C/	fu-	.	.
.	.	.	.	2E/	.	2g/	fu-
=234	=234	=234	=234	=234	=234	=234	=234
1GG	-it	1.G	qui	2D/	-it	2.g/	-it
.	.	.	.	2.G/	Mel-	.	.
.	.	.	.	.	.	4f/	.
1r	.	.	.	.	.	2e/	.
.	.	.	.	4A/	.	.	.
.	.	2G/	fu-	2B\	.	2d/	.
=235	=235	=235	=235	=235	=235	=235	=235
0r	.	2.G/	-it	2E/	.	2e/	Mel-
.	.	.	.	2B\	.	1g	.
.	.	4F/	.	.	.	.	.
.	.	2E/	.	2c\	.	.	.
.	.	2D/	Mel-	2d\	.	2f#i/	.
=236	=236	=236	=236	=236	=236	=236	=236
2r	.	2E/	.	2G/	-cha,	1g	-cha,
2BB/	Mel-	1G	.	2d\	qui	.	.
2C/	.	.	.	2e\	fu-	1r	.
2D\	.	2F#i/	.	[2d\	.	.	.
=237	=237	=237	=237	=237	=237	=237	=237
2GG/	-cha,	1G	-cha,	1d]	.	1r	.
1G	qui	.	.	.	.	.	.
.	.	1r	.	2e\	.	2r	.
2A\	fu-	.	.	2c\	-it	2e/	qui
=238	=238	=238	=238	=238	=238	=238	=238
2F\	-it	0r	.	2.d\	Men-	2f/	fu-
2.G\	Men-	.	.	.	.	2d/	-it
.	.	.	.	4B\	.	.	.
.	.	.	.	[1B	-na,	2.e/	Men-
4E\	.	.	.	.	.	.	.
[2E\	-na,	.	.	.	.	.	.
.	.	.	.	.	.	4f/	.
=239	=239	=239	=239	=239	=239	=239	=239
2E\]	.	2r	.	2B\]	.	1g	-na,
2C/	qui	2E/	qui	2c\	qui	.	.
2D\	fu-	2F/	fu-	2A/	fu-	1r	.
2BB/	-it	2D/	-it	2B\	-it	.	.
=240	=240	=240	=240	=240	=240	=240	=240
2.C/	Men-	2.E/	Men-	2G/	Men-	1r	.
.	.	.	.	2.c\	.	.	.
4BB/	.	4F/	.	.	.	.	.
1GG	-na,	1G	-na,	.	.	2r	.
.	.	.	.	4B\	.	.	.
.	.	.	.	2B\	.	[2g/	qui
=241	=241	=241	=241	=241	=241	=241	=241
1C	qui	0r	.	2G/	.	2g/]	.
.	.	.	.	2c\	.	2e/	fu-
1D	.	.	.	2A/	.	1f	.
.	.	.	.	[2B\	.	.	.
=242	=242	=242	=242	=242	=242	=242	=242
2.E\	fu-	2r	.	4B\]	.	0g	-it
.	.	.	.	4G/	.	.	.
.	.	1G	qui	1G	-na,	.	.
4D\	.	.	.	.	.	.	.
2E\	.	.	.	.	.	.	.
2C/	-it	2E/	fu-	[2c\	qui	.	.
=243	=243	=243	=243	=243	=243	=243	=243
1D	Ma-	1F	.	2c\]	.	1f	Ma-
.	.	.	.	2B\	.	.	.
[1C	-tha-	[1G	-it	2.c\	fu-	1e	-tha-
.	.	.	.	4B\	.	.	.
=244	=244	=244	=244	=244	=244	=244	=244
1C]	.	1G]	.	2G/	-it	1e	-tha,
.	.	.	.	2c\	Ma-	.	.
2.D\	.	1F	Ma-	2B\	-tha-	1r	.
.	.	.	.	[2A/	.	.	.
4AA/	.	.	.	.	.	.	.
=245	=245	=245	=245	=245	=245	=245	=245
1AA	-tha,	1E	-tha-	2A/]	.	1r	.
.	.	.	.	4G/	.	.	.
.	.	.	.	4F/	.	.	.
2r	.	1E	-tha,	1G	.	2r	.
2C/	qui	.	.	.	.	2c/	qui
=246	=246	=246	=246	=246	=246	=246	=246
1C	fu-	2r	.	2C/	-tha,	1e	fu-
.	.	2G/	qui	2.c\	qui	.	.
1FF	.	2.A/	fu-	.	.	1f	.
.	.	.	.	4B\	.	.	.
.	.	.	.	[2A/	fu-	.	.
.	.	4G/	.	.	.	.	.
=247	=247	=247	=247	=247	=247	=247	=247
1BB-	-it	2F/	.	2A/]	.	1d	-it
.	.	2D/	-it	2G/	.	.	.
1AA	.	1E	Na-	1A	-it	1c	.
=248	=248	=248	=248	=248	=248	=248	=248
1D	Na-	1F	.	2r	.	1d	Na-
.	.	.	.	2A/	Na-	.	.
1C	-than,	2G/	-than,	[1c	.	1e	-than,
.	.	2C/	qui	.	.	.	.
=249	=249	=249	=249	=249	=249	=249	=249
2r	.	2.G/	fu-	2c\]	.	2r	.
2E\	qui	.	.	4B\	.	2e/	qui
.	.	4A/	.	4A/	.	.	.
1E	fu-	4B\	.	1G	-than,	1g	fu-
.	.	4A/	.	.	.	.	.
.	.	[2c\	.	.	.	.	.
=250	=250	=250	=250	=250	=250	=250	=250
1AA	.	4c\]	.	2r	.	2.a/	.
.	.	4B\	.	.	.	.	.
.	.	1A	.	1c	qui	.	.
.	.	.	.	.	.	4g/	.
1D	.	.	.	.	.	4f/	.
.	.	.	.	.	.	4e/	.
.	.	4G/	.	2B\	fu-	2f/	.
.	.	4F/	.	.	.	.	.
=251	=251	=251	=251	=251	=251	=251	=251
1C	-it	1G	-it	2c\	-it	2e/	-it
.	.	.	.	1e	Da-	1cc	Da-
1F	Da-	1A	Da-	.	.	.	.
.	.	.	.	2d\	.	4b\	.
.	.	.	.	.	.	4a/	.
=252	=252	=252	=252	=252	=252	=252	=252
0E	-vid,	0B	-vid,	0e	-vid,	0g	-vid,
=253	=253	=253	=253	=253	=253	=253	=253
1r	.	1r	.	1r	.	1r	.
1E	qui	1B	qui	1e	qui	1g	qui
=254	=254	=254	=254	=254	=254	=254	=254
1G	fu-	1B	fu-	2.d\	fu-	1g	fu-
.	.	.	.	4c\	.	.	.
1G	-it	2.B\	-it	1d	-it	1g	-it
.	.	8A/L	.	.	.	.	.
.	.	8G/J	.	.	.	.	.
=255	=255	=255	=255	=255	=255	=255	=255
1.C	Ies-	2.G/	Ies-	0c	Ies-	1.e	Ies-
.	.	4F/	.	.	.	.	.
.	.	2.E/	.	.	.	.	.
4BB/	.	.	.	.	.	2f/	.
4AA/	.	8D/L	.	.	.	.	.
.	.	8C/J	.	.	.	.	.
=256	=256	=256	=256	=256	=256	=256	=256
1GG	.	1D	.	1B	.	1g	.
1AA	.	1C	.	[1A	.	2e/	.
.	.	.	.	.	.	[2f/	.
=257	=257	=257	=257	=257	=257	=257	=257
0BB-i	.	0D	.	2A/]	.	4f/]	.
.	.	.	.	.	.	4e/	.
.	.	.	.	4G/	.	2.g/	.
.	.	.	.	4F/	.	.	.
.	.	.	.	1G	.	.	.
.	.	.	.	.	.	4f/	.
.	.	.	.	.	.	4e/	.
.	.	.	.	.	.	4d/	.
=258	=258	=258	=258	=258	=258	=258	=258
[0AA	.	1E	.	[0A	-se.	[0c	-se.
.	.	1F	.	.	.	.	.
=259	=259	=259	=259	=259	=259	=259	=259
0AA]	-se.	0E	-se.	0A]	.	0c]	.
!!LO:LB:i:g=z
=260||	=260||	=260||	=260||	=260||	=260||	=260||	=260||
*>C	*	*>C	*	*>C	*	*>C	*
*M2/1	*	*M2/1	*	*M2/1	*	*M2/1	*
*met(C|)	*	*met(C|)	*	*met(C|)	*	*met(C|)	*
!!section: Tertia pars: Qui fuit Obed
!!!OMD: Tertia pars: Qui fuit Obed
0r	.	1.G	Qui	0r	.	0r	.
.	.	2G/	fu-	.	.	.	.
=261	=261	=261	=261	=261	=261	=261	=261
0r	.	1G	-it	0r	.	1.g	Qui
.	.	1E	O-	.	.	.	.
.	.	.	.	.	.	2g/	fu-
=262	=262	=262	=262	=262	=262	=262	=262
1.C	Qui	0E	-beth,	0r	.	1g	-it
.	.	.	.	.	.	1e	O-
2C/	fu-	.	.	.	.	.	.
=263	=263	=263	=263	=263	=263	=263	=263
1C	-it	0r	.	1.c	Qui	0e	-beth,
1AA	O-	.	.	.	.	.	.
.	.	.	.	2c\	fu-	.	.
=264	=264	=264	=264	=264	=264	=264	=264
0AA	-beth,	1r	.	1c	-it	0r	.
.	.	1E	qui	1A	O-	.	.
=265	=265	=265	=265	=265	=265	=265	=265
0r	.	1F	fu-	0A	-beth,	0r	.
.	.	1D	-it	.	.	.	.
=266	=266	=266	=266	=266	=266	=266	=266
0C	qui	2.E/	Bo-	0r	.	1r	.
.	.	4F/	.	.	.	.	.
.	.	2G/	.	.	.	1e	qui
.	.	[2A/	.	.	.	.	.
=267	=267	=267	=267	=267	=267	=267	=267
1D	fu-	4A/]	.	1r	.	1f	fu-
.	.	4G/	.	.	.	.	.
.	.	4F/	.	.	.	.	.
.	.	4E/	.	.	.	.	.
1D	-it	2.F/	.	1A	qui	1d	-it
.	.	4G/	.	.	.	.	.
=268	=268	=268	=268	=268	=268	=268	=268
0C	Bo-	1G	-oz,	1c	fu-	2.e/	Bo-
.	.	.	.	.	.	4f/	.
.	.	1r	.	2.c\	-it	2g/	.
.	.	.	.	.	.	[2a/	.
.	.	.	.	4B\	.	.	.
=269	=269	=269	=269	=269	=269	=269	=269
0D	.	0r	.	2.A/	.	4a/]	.
.	.	.	.	.	.	4g/	.
.	.	.	.	.	.	4f#i/	.
.	.	.	.	4G/	.	4e/	.
.	.	.	.	1A	.	2.f#i/	.
.	.	.	.	.	.	4g/	.
=270	=270	=270	=270	=270	=270	=270	=270
0GG	-oz,	1.G	qui	0B	Bo-	1g	-oz,
.	.	.	.	.	.	1r	.
.	.	2G/	fu-	.	.	.	.
=271	=271	=271	=271	=271	=271	=271	=271
0r	.	1G	-it	0E	-oz,	1.g	qui
.	.	1E	Sal-	.	.	.	.
.	.	.	.	.	.	2g/	fu-
=272	=272	=272	=272	=272	=272	=272	=272
1.C	qui	1E	-mon,	0r	.	1g	-it
.	.	2r	.	.	.	1e	Sal-
2C/	fu-	2E/	qui	.	.	.	.
=273	=273	=273	=273	=273	=273	=273	=273
1C	-it	1G	fu-	1.c	qui	1e	-mon,
1AA	Sal-	2.A/	-it	.	.	2r	.
.	.	.	.	2c\	fu-	[2e/	qui
.	.	4G/	.	.	.	.	.
=274	=274	=274	=274	=274	=274	=274	=274
0AA	-mon,	2E/	A-	1c	-it	4e/]	.
.	.	.	.	.	.	4d/	fu-
.	.	2.A/	-mi-	.	.	2e/	-it
.	.	.	.	1A	Sal-	2f/	Na-
.	.	4G/	.	.	.	.	.
.	.	4F/	.	.	.	[2e/	.
.	.	4E/	.	.	.	.	.
=275	=275	=275	=275	=275	=275	=275	=275
1r	.	2F/	.	1A	-mon,	2e/]	.
.	.	2F/	-na-	.	.	2d/	-a-
1AA	qui	1E	-dab,	1c	qui	[1e	-son,
=276	=276	=276	=276	=276	=276	=276	=276
1E	fu-	2r	.	2B\	.	1e]	.
.	.	2G/	qui	1c	fu-	.	.
1F	.	1A	fu-	.	.	1r	.
.	.	.	.	4B\	.	.	.
.	.	.	.	4A/	.	.	.
=277	=277	=277	=277	=277	=277	=277	=277
2E\	-it	2.G/	.	2c\	.	0r	.
2.G\	A-	.	.	2B\	-it	.	.
.	.	4A/	.	.	.	.	.
.	.	4B\	.	2.E/	A-	.	.
4F\	.	4A/	.	.	.	.	.
[2E\	.	[2c\	.	.	.	.	.
.	.	.	.	4F/	.	.	.
=278	=278	=278	=278	=278	=278	=278	=278
2E\]	.	4c\]	.	2G/	.	0r	.
.	.	4B\	-it	.	.	.	.
4D\	.	1A	A-	2A/	.	.	.
4C/	.	.	.	.	.	.	.
1BB	.	.	.	1B	.	.	.
.	.	2G#i/	.	.	.	.	.
=279	=279	=279	=279	=279	=279	=279	=279
0AA	-ram,	[0A	-ram,	1E	-ram,	1r	.
.	.	.	.	1r	.	[1e	qui
=280	=280	=280	=280	=280	=280	=280	=280
0r	.	0A]	.	1.c	qui	2e/]	.
.	.	.	.	.	.	2e/	fu-
.	.	.	.	.	.	2.e/	-it
.	.	.	.	2c\	fu-	.	.
.	.	.	.	.	.	4f/	.
=281	=281	=281	=281	=281	=281	=281	=281
0r	.	0r	.	1c	-it	2g/	.
.	.	.	.	.	.	1a	Es-
.	.	.	.	1B	Es-	.	.
.	.	.	.	.	.	2g#i/	.
=282	=282	=282	=282	=282	=282	=282	=282
2r	.	1r	.	1A	-rom,	1a	-rom,
2AA/	qui	.	.	.	.	.	.
1C	fu-	2r	.	1r	.	1r	.
.	.	2E/	qui	.	.	.	.
=283	=283	=283	=283	=283	=283	=283	=283
1D	-it	1F	fu-	0r	.	0r	.
2.GG/	Pha-	2E/	.	.	.	.	.
.	.	[2D/	-it	.	.	.	.
4AA/	.	.	.	.	.	.	.
=284	=284	=284	=284	=284	=284	=284	=284
2BB/	.	2D/]	.	2r	.	0r	.
2C/	.	1G	Pha-	2G/	qui	.	.
1AA	.	.	.	1c	fu-	.	.
.	.	2F#i/	.	.	.	.	.
=285	=285	=285	=285	=285	=285	=285	=285
1GG	-res,	1G	-res,	1B	-it	1g	qui
1r	.	1r	.	2G/	Iu-	2e/	fu-
.	.	.	.	2A/	.	2f/	.
=286	=286	=286	=286	=286	=286	=286	=286
0r	.	0r	.	2B\	.	1g	-it
.	.	.	.	2.c\	.	.	.
.	.	.	.	.	.	1g	Iu-
.	.	.	.	4B\	.	.	.
.	.	.	.	4A/	.	.	.
.	.	.	.	4G/	.	.	.
=287	=287	=287	=287	=287	=287	=287	=287
0r	.	0r	.	2A/	.	2f/	.
.	.	.	.	2E/	.	1e	.
.	.	.	.	1F	.	.	.
.	.	.	.	.	.	2d/	.
=288	=288	=288	=288	=288	=288	=288	=288
2r	.	1r	.	0E	-de,	0e	-de,
2AA/	qui	.	.	.	.	.	.
2.C/	fu-	2r	.	.	.	.	.
.	.	[2c\	qui	.	.	.	.
4D\	.	.	.	.	.	.	.
=289	=289	=289	=289	=289	=289	=289	=289
2E\	-it	2c\]	.	0r	.	0r	.
2.F\	Ia-	2c\	fu-	.	.	.	.
.	.	1c	-it	.	.	.	.
4E\	.	.	.	.	.	.	.
4D\	.	.	.	.	.	.	.
4C/	.	.	.	.	.	.	.
=290	=290	=290	=290	=290	=290	=290	=290
2D\	.	2B\	Ia-	0r	.	0r	.
2AA/	.	1A	.	.	.	.	.
1BB	.	.	.	.	.	.	.
.	.	2G#i/	.	.	.	.	.
=291	=291	=291	=291	=291	=291	=291	=291
0AA	-cob,	0A	-cob,	2r	.	1r	.
.	.	.	.	2A/	qui	.	.
.	.	.	.	2.c\	fu-	2r	.
.	.	.	.	.	.	[2cc\	qui
.	.	.	.	4d\	.	.	.
=292	=292	=292	=292	=292	=292	=292	=292
0r	.	0r	.	2e\	-it	2cc\]	.
.	.	.	.	2.f\	I-	2cc\	fu-
.	.	.	.	.	.	1cc	-it
.	.	.	.	4e\	.	.	.
.	.	.	.	4d\	.	.	.
.	.	.	.	4c\	.	.	.
=293	=293	=293	=293	=293	=293	=293	=293
0r	.	0r	.	2d\	.	2b\	I-
.	.	.	.	2A/	.	1a	.
.	.	.	.	1B	-sa-	.	.
.	.	.	.	.	.	2g#i/	-sa-
=294	=294	=294	=294	=294	=294	=294	=294
1r	.	2r	.	1A	-ac,	0a	-ac,
.	.	2A/	qui	.	.	.	.
2r	.	1c	fu-	2r	.	.	.
2AA/	qui	.	.	[2e\	qui	.	.
=295	=295	=295	=295	=295	=295	=295	=295
2E\	fu-	2B\	.	2e\]	.	2r	.
2F\	.	2A/	-it	2d\	.	1a	qui
2C/	-it	2.c\	A-	2c\	.	.	.
2G\	A-	.	.	[2d\	fu-	2g/	.
.	.	4B\	.	.	.	.	.
=296	=296	=296	=296	=296	=296	=296	=296
2D\	.	2A/	.	4d\]	.	2f/	.
.	.	.	.	4c\	.	.	.
2.E\	.	2G/	.	2c\	-it	2.g/	fu-
.	.	2E/	.	2B\	A-	.	.
4D\	.	.	.	.	.	4f/	.
2D\	.	4F/	.	[2A/	.	2f/	-it
.	.	4G/	.	.	.	.	.
=297	=297	=297	=297	=297	=297	=297	=297
2C/	.	2A/	.	2A/]	.	2e/	A-
2BB/	.	2D/	.	2G/	-bra-	1d	.
1AA	-bra-	1E	-bra-	1A	-e,	.	.
.	.	.	.	.	.	2c#i/	-bra-
=298	=298	=298	=298	=298	=298	=298	=298
1D	-e,	0D	-e,	1r	.	0d	-e,
1GG	.	.	.	[1d	qui	.	.
=299	=299	=299	=299	=299	=299	=299	=299
1.G	qui	0r	.	2d\]	.	0r	.
.	.	.	.	2d\	fu-	.	.
.	.	.	.	1d	-it	.	.
2G\	fu-	.	.	.	.	.	.
=300	=300	=300	=300	=300	=300	=300	=300
1G	-it	0r	.	1B	Tha-	0r	.
1E	Tha-	.	.	1B	-re,	.	.
=301	=301	=301	=301	=301	=301	=301	=301
1E	-re,	2r	.	1r	.	0r	.
.	.	2E/	qui	.	.	.	.
1r	.	2F/	fu-	2r	.	.	.
.	.	2D/	-it	2B\	qui	.	.
=302	=302	=302	=302	=302	=302	=302	=302
1r	.	2.E/	Na-	2c\	fu-	0r	.
.	.	.	.	2A/	-it	.	.
.	.	4F/	.	.	.	.	.
2r	.	1G	-chor,	2.B\	Na-	.	.
2GG/	qui	.	.	.	.	.	.
.	.	.	.	4c\	.	.	.
=303	=303	=303	=303	=303	=303	=303	=303
4GG/	fu-	2r	.	1d	-chor,	0r	.
4AA/	.	.	.	.	.	.	.
4BB/	.	2G/	qui	.	.	.	.
4C/	.	.	.	.	.	.	.
2D\	.	2F/	fu-	1r	.	.	.
2AA/	-it	[2E/	.	.	.	.	.
=304	=304	=304	=304	=304	=304	=304	=304
1BB	Se-	4E/]	.	2r	.	0r	.
.	.	4D/	.	.	.	.	.
.	.	2D/	.	2d\	qui	.	.
2AA/	.	2E/	-it	2c\	fu-	.	.
2GG/	.	[2G/	Ra-	[2B\	.	.	.
=305	=305	=305	=305	=305	=305	=305	=305
1D	.	2G/]	.	4B\]	.	1r	.
.	.	.	.	4A/	.	.	.
.	.	2F#i/	.	2A/	-it	.	.
1GG	-ruch,	2.G/	-gau,	2.B\	Se-	2r	.
.	.	.	.	.	.	2g/	qui
.	.	8A/L	.	4A/	.	.	.
.	.	8G/J	.	.	.	.	.
=306	=306	=306	=306	=306	=306	=306	=306
0r	.	2A/	.	2c\	-ruch,	2f/	fu-
.	.	2E/	qui	2.B\	qui	1e	-it
.	.	1F	fu-	.	.	.	.
.	.	.	.	8A/L	.	.	.
.	.	.	.	8G/J	.	.	.
.	.	.	.	2A/	.	2d/	Ra-
=307	=307	=307	=307	=307	=307	=307	=307
2r	.	2E/	-it	2B\	fu-	1e	-gau,
2G\	qui	2B\	Pha-	2E/	-it	.	.
2F\	fu-	2A/	.	2r	.	2r	.
[2E\	.	4G/	.	[2e\	He-	2cc\	qui
.	.	4A/	.	.	.	.	.
=308	=308	=308	=308	=308	=308	=308	=308
4E\]	.	4B\	.	2e\]	.	2b\	fu-
4D\	.	4c\	.	.	.	.	.
2D\	-it	2d\	.	2f\	.	2.a/	-it
1E	Pha-	1B	.	1e	.	.	.
.	.	.	.	.	.	4g#i/	.
.	.	.	.	.	.	2g#i/	He-
=309	=309	=309	=309	=309	=309	=309	=309
0AA	-leg,	1A	-leg,	0e	-ber,	1a	-ber,
.	.	1r	.	.	.	2r	.
.	.	.	.	.	.	[2a/	qui
=310	=310	=310	=310	=310	=310	=310	=310
2r	.	0c	qui	0r	.	4a/]	.
.	.	.	.	.	.	4g/	.
2F\	qui	.	.	.	.	2a/	fu-
2E\	.	.	.	.	.	2g/	-it
[2F\	fu-	.	.	.	.	[2a/	Sa-
=311	=311	=311	=311	=311	=311	=311	=311
2F\]	.	1c	fu-	0r	.	2a/]	.
4E\	.	.	.	.	.	4g/	.
4D\	.	.	.	.	.	4f/	.
1C	-it	1c	-it	.	.	2.e/	.
.	.	.	.	.	.	4d/	.
=312	=312	=312	=312	=312	=312	=312	=312
2r	.	0A	Sa-	0r	.	2e/	-le,
2D\	Ca-	.	.	.	.	2f/	qui
2C/	.	.	.	.	.	2e/	.
[2D\	.	.	.	.	.	[2f/	fu-
=313	=313	=313	=313	=313	=313	=313	=313
2D\]	.	1A	-le,	0r	.	2f/]	.
4C/	.	.	.	.	.	4e/	.
4BB/	.	.	.	.	.	4d/	.
2AA/	.	2r	.	.	.	2c/	-it
2D\	-i-	2A/	qui	.	.	[2d/	Ca-
=314	=314	=314	=314	=314	=314	=314	=314
2GG/	-nan,	1B	fu-	0r	.	4d/]	.
.	.	.	.	.	.	4c/	.
2G\	qui	.	.	.	.	4d/	.
.	.	.	.	.	.	4e/	.
2F\	.	2A/	-it	.	.	2f/	.
[2G\	fu-	[2B\	Ca-	.	.	[2d/	-i-
=315	=315	=315	=315	=315	=315	=315	=315
2G\]	.	2B\]	.	0r	.	4d/]	.
.	.	.	.	.	.	4c/	.
4F\	.	2G/	.	.	.	4d/	.
4E\	.	.	.	.	.	4e/	.
2D\	.	2A/	.	.	.	2f/	.
2G\	-it	2B\	-i-	.	.	2d/	-nan,
=316	=316	=316	=316	=316	=316	=316	=316
4C/	Ar-	1c	-nan,	2r	.	2.g/	qui
4D\	.	.	.	.	.	.	.
4E\	.	.	.	2e\	qui	.	.
4F\	.	.	.	.	.	4a/	.
2G\	.	1r	.	2d\	fu-	4b\	.
.	.	.	.	.	.	4a/	.
2A\	.	.	.	2c\	-it	[2cc\	fu-
=317	=317	=317	=317	=317	=317	=317	=317
4AA/	-pha-	0r	.	2e\	Ar-	2cc\]	.
4BB/	.	.	.	.	.	.	.
4C/	.	.	.	4d\	.	4b\	-it
4D\	.	.	.	4c\	.	4a/	.
2.E\	.	.	.	2B\	.	2.g/	Ar-
.	.	.	.	2e\	-pha-	.	.
4F\	.	.	.	.	.	4a/	.
=318	=318	=318	=318	=318	=318	=318	=318
2G\	.	0r	.	2d\	.	2b\	.
2A\	.	.	.	2c\	.	1a	.
1B	.	.	.	2.d\	.	.	.
.	.	.	.	.	.	2g#i/	-pha-
.	.	.	.	4e\	.	.	.
=319	=319	=319	=319	=319	=319	=319	=319
1A	-xat,	1r	.	2f\	-xat,	0a	-xat,
.	.	.	.	1e	qui	.	.
1AA	.	2r	.	.	.	.	.
.	.	2A/	qui	2c\	fu-	.	.
=320	=320	=320	=320	=320	=320	=320	=320
2r	.	1c	fu-	2e\	-it	2r	.
2C/	qui	.	.	2.e\	Sem-	2e/	qui
1E	fu-	2B\	.	.	.	1g	.
.	.	.	.	4d\	.	.	.
.	.	[2c\	.	4c\	.	.	.
.	.	.	.	4B\	.	.	.
=321	=321	=321	=321	=321	=321	=321	=321
2.F\	.	2c\]	.	2A/	.	2.a/	fu-
.	.	2A/	.	2c\	qui	.	.
4E\	.	.	.	.	.	4g/	.
2D\	.	2B\	.	2d\	fu-	2f/	.
2C/	-it	2c\	-it	2e\	-it	2e/	-it
=322	=322	=322	=322	=322	=322	=322	=322
1D	Sem,	1A	Sem,	2.d\	No-	1f	Sem,
.	.	.	.	4c\	.	.	.
1E	.	2.G/	qui	2.B\	.	1e	.
.	.	4A/	.	4A/	.	.	.
=323	=323	=323	=323	=323	=323	=323	=323
2r	.	4B\	.	1G	-e,	2r	.
.	.	4G/	.	.	.	.	.
2E\	qui	1c	fu-	.	.	2.e/	qui
1G	.	.	.	1r	.	.	.
.	.	.	.	.	.	4f/	.
.	.	2B\	-it	.	.	2g/	.
=324	=324	=324	=324	=324	=324	=324	=324
2.A\	fu-	4c\	No-	2r	.	2e/	fu-
.	.	4B\	.	.	.	.	.
.	.	4c\	.	2c\	qui	1a	.
4G\	.	4B\	.	.	.	.	.
2F\	.	4c\	.	2A/	fu-	.	.
.	.	4B\	.	.	.	.	.
2E\	-it	[2e\	.	[2B\	.	2g/	-it
=325	=325	=325	=325	=325	=325	=325	=325
1F	No-	2e\]	.	4B\]	.	2.a/	No-
.	.	.	.	4A/	.	.	.
.	.	2d\	.	2.A/	.	.	.
.	.	.	.	.	.	4b\	.
1E	-e,	1e	.	.	.	2cc\	-e,
.	.	.	.	8G/L	.	.	.
.	.	.	.	8F/J	.	.	.
.	.	.	.	[2G/	.	2b\	qui
=326	=326	=326	=326	=326	=326	=326	=326
2r	.	1E	-e,	2G/]	.	2.g/	fu-
1E	qui	.	.	2C/	-it	.	.
.	.	.	.	.	.	4f/	.
.	.	2r	.	2.c\	La-	4e/	.
.	.	.	.	.	.	4d/	.
2C/	.	[2A/	qui	.	.	2e/	-it
.	.	.	.	4B\	.	.	.
=327	=327	=327	=327	=327	=327	=327	=327
2D\	fu-	2A/]	.	4A/	.	2.f/	La-
.	.	.	.	4G/	.	.	.
2AA/	-it	2F/	.	1A	.	.	.
.	.	.	.	.	.	4e/	.
1BB	La-	2G/	fu-	.	.	4d/	.
.	.	.	.	.	.	4c/	.
.	.	2D/	-it	2G/	.	[2d/	.
=328	=328	=328	=328	=328	=328	=328	=328
1AA	.	1E	La-	1A	.	2d/]	.
.	.	.	.	.	.	2c#i/	.
1D	-mech,	1D	-mech,	1A	-mech,	[1d	-mech,
=329	=329	=329	=329	=329	=329	=329	=329
1GG	.	2r	.	2.B\	La-	1d]	.
.	.	1G	qui	.	.	.	.
.	.	.	.	4G/	.	.	.
1r	.	.	.	1G	-mech,	2r	.
.	.	2G/	fu-	.	.	[2g/	qui
=330	=330	=330	=330	=330	=330	=330	=330
0r	.	2.G/	-it	0r	.	2g/]	.
.	.	.	.	.	.	2g/	fu-
.	.	4F/	.	.	.	.	.
.	.	2E/	.	.	.	2.g/	-it
.	.	2D/	Ma-	.	.	.	.
.	.	.	.	.	.	4f/	.
=331	=331	=331	=331	=331	=331	=331	=331
0r	.	2E/	-thu-	0r	.	2e/	.
.	.	2F/	.	.	.	2d/	Ma-
.	.	1G	-sa-	.	.	2e/	-thu-
.	.	.	.	.	.	[2g/	.
=332	=332	=332	=332	=332	=332	=332	=332
1r	.	1A	.	2r	.	2g/]	.
.	.	.	.	2A/	qui	2f#i/	-sa-
2r	.	1G	-le,	2B\	fu-	1g	-le,
2E\	qui	.	.	2G/	-it	.	.
=333	=333	=333	=333	=333	=333	=333	=333
2F\	fu-	1r	.	2A/	E-	0r	.
2D\	-it	.	.	2B\	.	.	.
2E\	E-	2r	.	1c	-noch,	.	.
2F\	.	2A/	qui	.	.	.	.
=334	=334	=334	=334	=334	=334	=334	=334
1G	-noch,	2B\	fu-	0r	.	2r	.
.	.	2G/	-it	.	.	2e/	qui
1r	.	2A/	E-	.	.	2f/	fu-
.	.	2B\	.	.	.	2d/	-it
=335	=335	=335	=335	=335	=335	=335	=335
1r	.	1c	-noch,	2r	.	2e/	E-
.	.	.	.	2A/	qui	2f/	.
2r	.	1r	.	2B\	fu-	1g	-noch,
2E\	qui	.	.	2G/	-it	.	.
=336	=336	=336	=336	=336	=336	=336	=336
2F\	fu-	1r	.	2A/	E-	0r	.
2D\	-it	.	.	2B\	.	.	.
2E\	E-	2r	.	1c	-noch,	.	.
2F\	.	2A/	qui	.	.	.	.
=337	=337	=337	=337	=337	=337	=337	=337
2.G\	.	2B\	fu-	0r	.	2r	.
.	.	2G/	-it	.	.	2e/	qui
8F\L	.	.	.	.	.	.	.
8E\J	.	.	.	.	.	.	.
1D	.	2A/	E-	.	.	2f/	fu-
.	.	2B\	.	.	.	2d/	-it
=338	=338	=338	=338	=338	=338	=338	=338
0C	-noch,	1c	-noch,	1r	.	2.e/	E-
.	.	.	.	.	.	4f/	.
.	.	1r	.	2r	.	[1g	-noch,
.	.	.	.	2G/	qui	.	.
=339	=339	=339	=339	=339	=339	=339	=339
2r	.	0r	.	2.E/	fu-	1g]	.
2G\	qui	.	.	.	.	.	.
.	.	.	.	4F/	.	.	.
2.E\	fu-	.	.	1G	.	2r	.
.	.	.	.	.	.	2g/	qui
4F\	.	.	.	.	.	.	.
=340	=340	=340	=340	=340	=340	=340	=340
1G	.	2r	.	1C	-it	2.e/	fu-
.	.	2G/	qui	.	.	.	.
.	.	.	.	.	.	4f/	.
[1C	-it	2.E/	fu-	2r	.	1g	.
.	.	.	.	[2c\	Ia-	.	.
.	.	4F/	.	.	.	.	.
=341	=341	=341	=341	=341	=341	=341	=341
1C]	.	1G	.	2c\]	.	2c/	-it
.	.	.	.	4B\	.	1cc	Ia-
.	.	.	.	4A/	.	.	.
1C	Ia-	1G	-it	1e	.	.	.
.	.	.	.	.	.	4b\	.
.	.	.	.	.	.	4a/	.
=342	=342	=342	=342	=342	=342	=342	=342
1D	.	1F	Ia-	2.d\	.	2b\	.
.	.	.	.	.	.	1a	.
.	.	.	.	4c\	.	.	.
1E	.	1E	.	1B	.	.	.
.	.	.	.	.	.	2g#i/	.
=343	=343	=343	=343	=343	=343	=343	=343
*	*	*M2/1	*	*M2/1	*	*	*
*	*	*met(O/3)	*	*met(O/3)	*	*	*
0AA	-reth,	3%4.E	-reth,	3%4A	-reth,	0a	-reth,
.	.	.	.	3%2A	qui	.	.
=344	=344	=344	=344	=344	=344	=344	=344
*M2/1	*	*	*	*	*	*	*
*met(O/3)	*	*	*	*	*	*	*
3%4.r	.	3%2r	.	3%2.G	fu-	0r	.
.	.	3%2C	qui	.	.	.	.
.	.	.	.	3A/	.	.	.
.	.	3%2D	.	3%2B	-it	.	.
=345	=345	=345	=345	=345	=345	=345	=345
3%2.C	qui	3%2.E	fu-	3%2c	Ma-	0r	.
.	.	.	.	3%2A	.	.	.
3D\	fu-	3F/	-it	.	.	.	.
3%2E	-it	3%2G	Ma-	3%2G	.	.	.
=346	=346	=346	=346	=346	=346	=346	=346
3%2F	Ma-	3%2.A	-la-	3%2.c	-la-	0r	.
3%4D	-la-	.	.	.	.	.	.
.	.	3G/	.	6B\	.	.	.
.	.	.	.	6A/	.	.	.
.	.	3%2F	.	3%2B	-le-	.	.
=347	=347	=347	=347	=347	=347	=347	=347
3%2C	-le-	3%2E	.	3%2c	-el,	0r	.
3%4D	.	3%2F	-le-	3%2A	.	.	.
.	.	3%2D	-el,	3%2d	qui	.	.
=348	=348	=348	=348	=348	=348	=348	=348
3%4E	-el,	3%2.G	qui	3%2c	fu-	0r	.
.	.	.	.	3%2.B	.	.	.
.	.	3A/	fu-	.	.	.	.
3%2r	.	3%2B	-it	.	.	.	.
.	.	.	.	3E/	-it	.	.
=349	=349	=349	=349	=349	=349	=349	=349
3%2.E	qui	3%2.c	Ca-	3%4e	Ca-	0r	.
3F\	fu-	6B\	.	.	.	.	.
.	.	6A/	.	.	.	.	.
3%2G	-it	3%2B	.	3%2d	.	.	.
=350	=350	=350	=350	=350	=350	=350	=350
3%2.A	Ca-	3%2c	.	3%2.c	.	0r	.
.	.	3%2F	-i-	.	.	.	.
3G\	.	.	.	3B\	.	.	.
3%2F	.	[3%2c	-nan,	3c\	-i-	.	.
.	.	.	.	3d\	.	.	.
=351	=351	=351	=351	=351	=351	=351	=351
3%2E	.	3c\]	.	3%2.e	-nan,	0r	.
.	.	3B\	.	.	.	.	.
3%4F	-i-	3.A/	.	.	.	.	.
.	.	.	.	6d\	.	.	.
.	.	6G/	.	6c\	.	.	.
.	.	3%2A	.	3%2d	.	.	.
=352	=352	=352	=352	=352	=352	=352	=352
*M2/1	*	*M2/1	*	*M2/1	*	*	*
*met(C|)	*	*met(C|)	*	*met(C|)	*	*	*
1E	-nan,	1B	qui	2.e\	qui	0r	.
.	.	.	.	4d\	.	.	.
1r	.	2A/	fu-	2c\	fu-	.	.
.	.	2G/	-it	2B\	-it	.	.
=353	=353	=353	=353	=353	=353	=353	=353
1r	.	1A	E-	2c\	E-	0r	.
.	.	.	.	2A/	.	.	.
1E	qui	1G	.	1B	-nos,	.	.
=354	=354	=354	=354	=354	=354	=354	=354
2D\	fu-	2F/	.	0r	.	0r	.
2C/	-it	2E/	.	.	.	.	.
1D	E-	1F	.	.	.	.	.
=355	=355	=355	=355	=355	=355	=355	=355
1C	.	2.E/	-nos,	1e	qui	0r	.
.	.	4F/	.	.	.	.	.
2BB/	.	2G/	.	2d\	.	.	.
[2AA/	.	2A/	qui	2c\	.	.	.
=356	=356	=356	=356	=356	=356	=356	=356
4AA/]	.	1B	fu-	1d	fu-	0r	.
4GG#i/	.	.	.	.	.	.	.
2GG#i/	.	.	.	.	.	.	.
2AA/	-nos,	2E/	-it	1c	-it	.	.
[2E\	E-	[2G/	E-	.	.	.	.
=357	=357	=357	=357	=357	=357	=357	=357
4E\]	.	4G/]	.	2B\	E-	0r	.
4D\	.	4F/	.	.	.	.	.
2C/	.	1E	.	2.A/	.	.	.
1BB	.	.	.	.	.	.	.
.	.	.	.	4G#i/	.	.	.
.	.	2D/	.	2G#i/	.	.	.
=358	=358	=358	=358	=358	=358	=358	=358
0AA	-nos,	1.E	.	1A	-nos,	0r	.
.	.	.	.	2r	.	.	.
.	.	2C/	.	[2c\	qui	.	.
=359	=359	=359	=359	=359	=359	=359	=359
0r	.	1C	-nos,	2c\]	.	2r	.
.	.	.	.	2c\	fu-	1g	qui
.	.	1r	.	2.c\	-it	.	.
.	.	.	.	.	.	2g/	fu-
.	.	.	.	8B/L	.	.	.
.	.	.	.	8A/J	.	.	.
=360	=360	=360	=360	=360	=360	=360	=360
0r	.	0r	.	2B\	.	1g	-it
.	.	.	.	1c	Seth,	.	.
.	.	.	.	.	.	1e	.
.	.	.	.	4B\	.	.	.
.	.	.	.	4A/	.	.	.
=361	=361	=361	=361	=361	=361	=361	=361
1r	.	0r	.	4G/	.	0e	Seth,
.	.	.	.	4F/	.	.	.
.	.	.	.	4E/	.	.	.
.	.	.	.	4D/	.	.	.
2r	.	.	.	2C/	.	.	.
2E\	qui	.	.	2c\	qui	.	.
=362	=362	=362	=362	=362	=362	=362	=362
2F\	fu-	1r	.	2A/	fu-	0r	.
2D\	-it	.	.	2d\	-it	.	.
2.E\	A-	2r	.	2B\	A-	.	.
.	.	2E/	qui	2c\	.	.	.
4C/	.	.	.	.	.	.	.
=363	=363	=363	=363	=363	=363	=363	=363
2D\	.	2F/	fu-	2A/	.	0r	.
2BB/	.	2D/	-it	2B\	.	.	.
2C/	.	2E/	A-	1G	-dam,	.	.
2GG/	.	[2G/	.	.	.	.	.
=364	=364	=364	=364	=364	=364	=364	=364
1AA	.	2G/]	.	1r	.	1r	.
.	.	2F#i/	.	.	.	.	.
1GG	-dam,	1G	-dam,	2r	.	1g	qui
.	.	.	.	2B\	qui	.	.
=365	=365	=365	=365	=365	=365	=365	=365
0r	.	0r	.	2c\	fu-	2e/	fu-
.	.	.	.	2A/	-it	2f/	-it
.	.	.	.	2.B\	de-	2.g/	de-
.	.	.	.	4G/	.	4e/	.
=366	=366	=366	=366	=366	=366	=366	=366
0r	.	0r	.	2A/	.	2f/	.
.	.	.	.	2E/	.	1e	.
.	.	.	.	1F	.	.	.
.	.	.	.	.	.	2d/	.
=367	=367	=367	=367	=367	=367	=367	=367
0C	qui	0G	qui	1.E	-i,	1e	-i,
.	.	.	.	.	.	2r	.
.	.	.	.	[2G/	qui	2e/	qui
=368	=368	=368	=368	=368	=368	=368	=368
1C	fu-	1E	fu-	4G/]	.	1g	fu-
.	.	.	.	4C/	.	.	.
.	.	.	.	1c	fu-	.	.
1D	.	1F	.	.	.	1f	.
.	.	.	.	2B\	.	.	.
=369	=369	=369	=369	=369	=369	=369	=369
0C	-it	0G	.	0c	-it	0e	-it
=370	=370	=370	=370	=370	=370	=370	=370
1GG	de-	1G	it	1B	de-	1d	de-
2.C/	.	[1G	de-	1c	.	2e/	.
.	.	.	.	.	.	[2g/	.
4D\	.	.	.	.	.	.	.
=371	=371	=371	=371	=371	=371	=371	=371
2E\	.	1G]	.	2B\	.	2g/]	.
2C/	.	.	.	2c\	.	4f/	.
.	.	.	.	.	.	4e/	.
1D	.	1F	.	1A	-i,	1d	.
=372	=372	=372	=372	=372	=372	=372	=372
[0AA	.	0E	-i.	1r	.	0c	-i.
.	.	.	.	1A	Ie-	.	.
=373	=373	=373	=373	=373	=373	=373	=373
0AA]	.	1r	.	0c	-sus	0r	.
.	.	1E	Ie-	.	.	.	.
=374	=374	=374	=374	=374	=374	=374	=374
0E	-i.	0G	-sus	0B	au-	0r	.
=375	=375	=375	=375	=375	=375	=375	=375
1r	.	0A	au-	1A	.	1r	.
1AA	Ie-	.	.	[1c	.	1e	Ie-
=376	=376	=376	=376	=376	=376	=376	=376
0C	-sus	0E	-tem	2c\]	.	0e	-sus
.	.	.	.	4B\	.	.	.
.	.	.	.	4A/	.	.	.
.	.	.	.	2.G/	.	.	.
.	.	.	.	4A/	.	.	.
=377	=377	=377	=377	=377	=377	=377	=377
0D	au-	0F	ple-	1B	.	0d	au-
.	.	.	.	1A	-tem	.	.
=378	=378	=378	=378	=378	=378	=378	=378
0AA	-tem	1E	-nus	1r	.	1c	-tem
.	.	[1F	spi-	1A	ple-	1cc	ple-
=379	=379	=379	=379	=379	=379	=379	=379
1AA	ple-	1F]	.	1A	-nus	1cc	-nus
1AA	-nus	1E	-ri-	1A	spi-	1cc	spi-
=380	=380	=380	=380	=380	=380	=380	=380
0BB	spi-	0D	-tu	1F	-ri-	1dd	-ri-
.	.	.	.	1G	.	1dd	-tus
=381	=381	=381	=381	=381	=381	=381	=381
0AA	-ri-	1.E	sanc-	0A	-tu	1.cc	sanc-
.	.	2F/	.	.	.	4b\	.
.	.	.	.	.	.	4a/	.
=382	=382	=382	=382	=382	=382	=382	=382
0GG	-tus	0G	-to	0d	sanc-	0b	.
=383	=383	=383	=383	=383	=383	=383	=383
1.AA	sanc-	0r	.	1c	.	1.cc	-to
.	.	.	.	[1e	.	.	.
2BB/	.	.	.	.	.	4b\	.
.	.	.	.	.	.	4a/	.
=384	=384	=384	=384	=384	=384	=384	=384
1C	-to	1r	.	2e\]	.	0g	.
.	.	.	.	4d\	.	.	.
.	.	.	.	4c\	.	.	.
1r	.	1G	re-	2.B\	.	.	.
.	.	.	.	4c\	.	.	.
=385	=385	=385	=385	=385	=385	=385	=385
1GG	re-	1G	-gres-	1d	-to	1r	.
1GG	-gres-	1G	-sus	1G	.	1g	re-
=386	=386	=386	=386	=386	=386	=386	=386
1GG	-sus	[0G	est	1r	.	1g	-gres-
[1C	est	.	.	1G	re-	1g	-sus
=387	=387	=387	=387	=387	=387	=387	=387
2C/]	.	0G]	.	1G	-gres-	1cc	est-
2D\	.	.	.	.	.	.	.
1E	.	.	.	1G	-sus	2b\	.
.	.	.	.	.	.	[2cc\	.
=388	=388	=388	=388	=388	=388	=388	=388
0AA	a	0A	a	0c	est	4cc\]	.
.	.	.	.	.	.	4b\	.
.	.	.	.	.	.	4a/	.
.	.	.	.	.	.	4g/	.
.	.	.	.	.	.	1a	.
=389	=389	=389	=389	=389	=389	=389	=389
1.C	Ior-	0E	Ior-	1c	a	0g	a
.	.	.	.	1G	Ior-	.	.
2BB/	.	.	.	.	.	.	.
=390	=390	=390	=390	=390	=390	=390	=390
0AA	-da-	1.E	-da-	0c	-da-	0a	.
.	.	2F/	.	.	.	.	.
=391	=391	=391	=391	=391	=391	=391	=391
0GG	.	[0Gl	-ne.	0B	.	0d	Ior-
=392	=392	=392	=392	=392	=392	=392	=392
1.C	.	0G_	.	1.c	.	1.e	-da-
2D\	.	.	.	4B\	.	2f/	.
.	.	.	.	4A/	.	.	.
=393	=393	=393	=393	=393	=393	=393	=393
2E\	.	0G_	.	1.G	.	[0gl	-ne.
2C/	.	.	.	.	.	.	.
2.E\	.	.	.	.	.	.	.
.	.	.	.	2A/	.	.	.
4F\	.	.	.	.	.	.	.
=394	=394	=394	=394	=394	=394	=394	=394
0G	.	0G_	.	2B\	.	0g_	.
.	.	.	.	2G/	.	.	.
.	.	.	.	2.B\	.	.	.
.	.	.	.	4c\	.	.	.
=395	=395	=395	=395	=395	=395	=395	=395
0GGl	-ne.	0G]	.	0dl	-ne.	0g]	.
==	==	==	==	==	==	==	==
*-	*-	*-	*-	*-	*-	*-	*-
!!!RDF**kern: l=long note in original notation
!!!RDF**kern: i=editorial accidental
!!!ENC: Jesse Rodin; 2011/05/22
!!!END: 2011/05/22/
!!!EED: Jesse Rodin
!!!EEV: 2011/08/18/
!!attribution-level@Jos: 1 (secure, core group [checkmark])
!!!ONB: Translated from MusicXML and edited on 2011/08/18/ by Craig Sapp
!!muse2ps: u^(2) @{OTL2} (3) @{OTL3}^C^@{COM}\n@{SCT}^i2I150v90,90,90,120c122z18l2700t130
